; G-Code originally generated by Simplify3D(R) Version 4.1.2
G90
M82
M106 S0
M140 S60
M190 S60
M104 S200 T0
M109 S200 T0
G28 ; home all axes
;G29 ; probe ABL
;M420 S1 ; restore ABL mesh 
; process Color1
; layer 1, Z = 0.200
T0
G92 E0.0000
G1 E-5 F2400
; feature skirt
; tool H0.200 W0.576
G1 Z0.400 F1200
G1 X103.136 Y87.985 F6000
G1 Z0.200 F1200
G1 E0.0000 F2400
G92 E0.0000
G1 X105.985 Y85.136 E0.1737 F1800
G1 X130.015 Y85.136 E1.2095
G1 X132.864 Y87.985 E1.3832
G1 X132.864 Y112.015 E2.4190
G1 X130.015 Y114.864 E2.5927
G1 X105.985 Y114.864 E3.6285
G1 X103.136 Y112.015 E3.8021
G1 X103.136 Y87.985 E4.8379
G92 E0.0000
G1 E-5 F2400
G1 Z0.600 F1200
G1 X103.712 Y88.224 F6000
G1 Z0.200 F1200
G1 E0.0000 F2400
G92 E0.0000
G1 X106.224 Y85.712 E0.1531 F1800
G1 X129.776 Y85.712 E1.1683
G1 X132.288 Y88.224 E1.3215
G1 X132.288 Y111.776 E2.3367
G1 X129.776 Y114.288 E2.4898
G1 X106.224 Y114.288 E3.5050
G1 X103.712 Y111.776 E3.6582
G1 X103.712 Y88.224 E4.6734
G92 E0.0000
G1 E-5 F2400
; feature inner perimeter
G1 Z0.600 F1200
G1 X108.288 Y90.288 F6000
G1 X108.288 Y90.793
G1 X109.440 Y91.440
G1 Z0.200 F1200
G1 E0.0000 F2400
G92 E0.0000
G1 X126.560 Y91.440 E0.7380 F1350
G1 X126.560 Y108.560 E1.4759
G1 X109.440 Y108.560 E2.2139
G1 X109.440 Y91.440 E2.9518
G1 X108.864 Y90.864 F6000
G92 E0.0000
G1 X127.136 Y90.864 E0.7876 F1350
G1 X127.136 Y109.136 E1.5752
G1 X108.864 Y109.136 E2.3629
G1 X108.864 Y90.864 E3.1505
; feature outer perimeter
G1 X108.288 Y90.288 F6000
G92 E0.0000
G1 X127.712 Y90.288 E0.8373 F900
G1 X127.712 Y109.712 E1.6745
G1 X108.288 Y109.712 E2.5118
G1 X108.288 Y90.288 E3.3491
; feature solid layer
G1 X126.077 Y91.786 F6000
G92 E0.0000
G1 X126.214 Y91.923 E0.0084 F1440
G1 X126.214 Y92.737 E0.0435
G1 X125.263 Y91.786 E0.1015
G1 X124.448 Y91.786 E0.1366
G1 X126.214 Y93.552 E0.2443
G1 X126.214 Y94.366 E0.2794
G1 X123.634 Y91.786 E0.4367
G1 X122.819 Y91.786 E0.4718
G1 X126.214 Y95.181 E0.6788
G1 X126.214 Y95.996 E0.7139
G1 X122.004 Y91.786 E0.9705
G1 X121.190 Y91.786 E1.0057
G1 X126.214 Y96.810 E1.3120
G1 X126.214 Y97.625 E1.3471
G1 X120.375 Y91.786 E1.7030
G1 X119.561 Y91.786 E1.7381
G1 X126.214 Y98.439 E2.1437
G1 X126.214 Y99.254 E2.1789
G1 X118.746 Y91.786 E2.6341
G1 X117.931 Y91.786 E2.6692
G1 X126.214 Y100.069 E3.1742
G1 X126.214 Y100.883 E3.2093
G1 X117.117 Y91.786 E3.7639
G1 X116.302 Y91.786 E3.7990
G1 X126.214 Y101.698 E4.4032
G1 X126.214 Y102.512 E4.4383
G1 X115.488 Y91.786 E5.0922
G1 X114.673 Y91.786 E5.1273
G1 X126.214 Y103.327 E5.8309
G1 X126.214 Y104.141 E5.8660
G1 X113.859 Y91.786 E6.6192
G1 X113.044 Y91.786 E6.6543
G1 X126.214 Y104.956 E7.4572
G1 X126.214 Y105.771 E7.4923
G1 X112.229 Y91.786 E8.3448
G1 X111.415 Y91.786 E8.3799
G1 X126.214 Y106.585 E9.2821
G1 X126.214 Y107.400 E9.3172
G1 X110.600 Y91.786 E10.2691
G1 X109.786 Y91.786 E10.3042
G1 X126.214 Y108.214 E11.3057
G1 X125.400 Y108.214 E11.3408
G1 X109.786 Y92.600 E12.2926
G1 X109.786 Y93.415 E12.3278
G1 X124.585 Y108.214 E13.2299
G1 X123.771 Y108.214 E13.2651
G1 X109.786 Y94.229 E14.1176
G1 X109.786 Y95.044 E14.1527
G1 X122.956 Y108.214 E14.9556
G1 X122.141 Y108.214 E14.9907
G1 X109.786 Y95.859 E15.7439
G1 X109.786 Y96.673 E15.7790
G1 X121.327 Y108.214 E16.4826
G1 X120.512 Y108.214 E16.5177
G1 X109.786 Y97.488 E17.1716
G1 X109.786 Y98.302 E17.2067
G1 X119.698 Y108.214 E17.8109
G1 X118.883 Y108.214 E17.8460
G1 X109.786 Y99.117 E18.4006
G1 X109.786 Y99.931 E18.4357
G1 X118.069 Y108.214 E18.9407
G1 X117.254 Y108.214 E18.9758
G1 X109.786 Y100.746 E19.4310
G1 X109.786 Y101.561 E19.4662
G1 X116.439 Y108.214 E19.8718
G1 X115.625 Y108.214 E19.9069
G1 X109.786 Y102.375 E20.2628
G1 X109.786 Y103.190 E20.2980
G1 X114.810 Y108.214 E20.6043
G1 X113.996 Y108.214 E20.6394
G1 X109.786 Y104.004 E20.8960
G1 X109.786 Y104.819 E20.9311
G1 X113.181 Y108.214 E21.1381
G1 X112.366 Y108.214 E21.1732
G1 X109.786 Y105.634 E21.3305
G1 X109.786 Y106.448 E21.3657
G1 X111.552 Y108.214 E21.4733
G1 X110.737 Y108.214 E21.5084
G1 X109.786 Y107.263 E21.5665
G1 X109.786 Y108.077 E21.6016
G1 X109.923 Y108.214 E21.6099
G92 E0.0000
G1 E-5 F2400
; layer 2, Z = 0.400
M106 S255
; feature inner perimeter
; tool H0.200 W0.480
G1 Z0.600 F1200
G1 X109.200 Y108.800 F6000
G1 Z0.400 F1200
G1 E0.0000 F2400
G92 E0.0000
G1 X109.200 Y91.200 E0.6322 F2700
G1 X126.800 Y91.200 E1.2644
G1 X126.800 Y108.800 E1.8966
G1 X109.200 Y108.800 E2.5288
G1 X108.720 Y109.280 F6000
G92 E0.0000
G1 X108.720 Y90.720 E0.6667 F2700
G1 X127.280 Y90.720 E1.3334
G1 X127.280 Y109.280 E2.0001
G1 X108.720 Y109.280 E2.6668
; feature outer perimeter
G1 X108.240 Y109.760 F6000
G92 E0.0000
G1 X108.240 Y90.240 E0.7012 F1800
G1 X127.760 Y90.240 E1.4024
G1 X127.760 Y109.760 E2.1035
G1 X108.240 Y109.760 E2.8047
; feature solid layer
G1 X109.488 Y91.541 F6000
G92 E0.0000
G1 X109.541 Y91.488 E0.0027 F2880
G1 X110.220 Y91.488 E0.0271
G1 X109.488 Y92.220 E0.0643
G1 X109.488 Y92.899 E0.0887
G1 X110.899 Y91.488 E0.1604
G1 X111.578 Y91.488 E0.1848
G1 X109.488 Y93.578 E0.2909
G1 X109.488 Y94.257 E0.3153
G1 X112.257 Y91.488 E0.4560
G1 X112.936 Y91.488 E0.4803
G1 X109.488 Y94.936 E0.6555
G1 X109.488 Y95.614 E0.6799
G1 X113.614 Y91.488 E0.8895
G1 X114.293 Y91.488 E0.9139
G1 X109.488 Y96.293 E1.1580
G1 X109.488 Y96.972 E1.1824
G1 X114.972 Y91.488 E1.4609
G1 X115.651 Y91.488 E1.4853
G1 X109.488 Y97.651 E1.7984
G1 X109.488 Y98.330 E1.8228
G1 X116.330 Y91.488 E2.1703
G1 X117.009 Y91.488 E2.1947
G1 X109.488 Y99.009 E2.5768
G1 X109.488 Y99.687 E2.6012
G1 X117.687 Y91.488 E3.0177
G1 X118.366 Y91.488 E3.0421
G1 X109.488 Y100.366 E3.4931
G1 X109.488 Y101.045 E3.5175
G1 X119.045 Y91.488 E4.0030
G1 X119.724 Y91.488 E4.0273
G1 X109.488 Y101.724 E4.5473
G1 X109.488 Y102.403 E4.5717
G1 X120.403 Y91.488 E5.1262
G1 X121.081 Y91.488 E5.1505
G1 X109.488 Y103.081 E5.7395
G1 X109.488 Y103.760 E5.7639
G1 X121.760 Y91.488 E6.3873
G1 X122.439 Y91.488 E6.4117
G1 X109.488 Y104.439 E7.0696
G1 X109.488 Y105.118 E7.0940
G1 X123.118 Y91.488 E7.7864
G1 X123.797 Y91.488 E7.8108
G1 X109.488 Y105.797 E8.5377
G1 X109.488 Y106.476 E8.5620
G1 X124.476 Y91.488 E9.3234
G1 X125.154 Y91.488 E9.3478
G1 X109.488 Y107.154 E10.1436
G1 X109.488 Y107.833 E10.1680
G1 X125.833 Y91.488 E10.9984
G1 X126.512 Y91.488 E11.0227
G1 X109.488 Y108.512 E11.8876
G1 X110.167 Y108.512 E11.9119
G1 X126.512 Y92.167 E12.7423
G1 X126.512 Y92.846 E12.7667
G1 X110.846 Y108.512 E13.5625
G1 X111.525 Y108.512 E13.5869
G1 X126.512 Y93.525 E14.3482
G1 X126.512 Y94.203 E14.3726
G1 X112.203 Y108.512 E15.0995
G1 X112.882 Y108.512 E15.1239
G1 X126.512 Y94.882 E15.8163
G1 X126.512 Y95.561 E15.8407
G1 X113.561 Y108.512 E16.4986
G1 X114.240 Y108.512 E16.5230
G1 X126.512 Y96.240 E17.1464
G1 X126.512 Y96.919 E17.1708
G1 X114.919 Y108.512 E17.7597
G1 X115.597 Y108.512 E17.7841
G1 X126.512 Y97.597 E18.3386
G1 X126.512 Y98.276 E18.3629
G1 X116.276 Y108.512 E18.8829
G1 X116.955 Y108.512 E18.9073
G1 X126.512 Y98.955 E19.3928
G1 X126.512 Y99.634 E19.4172
G1 X117.634 Y108.512 E19.8682
G1 X118.313 Y108.512 E19.8926
G1 X126.512 Y100.313 E20.3091
G1 X126.512 Y100.992 E20.3335
G1 X118.992 Y108.512 E20.7155
G1 X119.670 Y108.512 E20.7399
G1 X126.512 Y101.670 E21.0875
G1 X126.512 Y102.349 E21.1118
G1 X120.349 Y108.512 E21.4249
G1 X121.028 Y108.512 E21.4493
G1 X126.512 Y103.028 E21.7279
G1 X126.512 Y103.707 E21.7523
G1 X121.707 Y108.512 E21.9964
G1 X122.386 Y108.512 E22.0207
G1 X126.512 Y104.386 E22.2304
G1 X126.512 Y105.064 E22.2547
G1 X123.064 Y108.512 E22.4299
G1 X123.743 Y108.512 E22.4543
G1 X126.512 Y105.743 E22.5949
G1 X126.512 Y106.422 E22.6193
G1 X124.422 Y108.512 E22.7255
G1 X125.101 Y108.512 E22.7498
G1 X126.512 Y107.101 E22.8215
G1 X126.512 Y107.780 E22.8459
G1 X125.780 Y108.512 E22.8831
G1 X126.459 Y108.512 E22.9075
G1 X126.512 Y108.459 E22.9102
G92 E0.0000
G1 E-5 F2400
; layer 3, Z = 0.600
; feature inner perimeter
G1 Z0.800 F1200
G1 X126.800 Y108.800 F6000
G1 Z0.600 F1200
G1 E0.0000 F2400
G92 E0.0000
G1 X109.200 Y108.800 E0.6322 F2700
G1 X109.200 Y91.200 E1.2644
G1 X126.800 Y91.200 E1.8966
G1 X126.800 Y108.800 E2.5288
G1 X127.280 Y109.280 F6000
G92 E0.0000
G1 X108.720 Y109.280 E0.6667 F2700
G1 X108.720 Y90.720 E1.3334
G1 X127.280 Y90.720 E2.0001
G1 X127.280 Y109.280 E2.6668
; feature outer perimeter
G1 X127.760 Y109.760 F6000
G92 E0.0000
G1 X108.240 Y109.760 E0.7012 F1800
G1 X108.240 Y90.240 E1.4024
G1 X127.760 Y90.240 E2.1035
G1 X127.760 Y109.760 E2.8047
; feature solid layer
G1 X109.541 Y108.512 F6000
G92 E0.0000
G1 X109.488 Y108.459 E0.0027 F2880
G1 X109.488 Y107.780 E0.0271
G1 X110.220 Y108.512 E0.0643
G1 X110.899 Y108.512 E0.0887
G1 X109.488 Y107.101 E0.1604
G1 X109.488 Y106.422 E0.1847
G1 X111.578 Y108.512 E0.2909
G1 X112.257 Y108.512 E0.3153
G1 X109.488 Y105.743 E0.4560
G1 X109.488 Y105.064 E0.4803
G1 X112.936 Y108.512 E0.6555
G1 X113.614 Y108.512 E0.6799
G1 X109.488 Y104.386 E0.8895
G1 X109.488 Y103.707 E0.9139
G1 X114.293 Y108.512 E1.1580
G1 X114.972 Y108.512 E1.1823
G1 X109.488 Y103.028 E1.4609
G1 X109.488 Y102.349 E1.4853
G1 X115.651 Y108.512 E1.7984
G1 X116.330 Y108.512 E1.8228
G1 X109.488 Y101.670 E2.1703
G1 X109.488 Y100.992 E2.1947
G1 X117.008 Y108.512 E2.5768
G1 X117.687 Y108.512 E2.6011
G1 X109.488 Y100.313 E3.0177
G1 X109.488 Y99.634 E3.0420
G1 X118.366 Y108.512 E3.4931
G1 X119.045 Y108.512 E3.5174
G1 X109.488 Y98.955 E4.0029
G1 X109.488 Y98.276 E4.0273
G1 X119.724 Y108.512 E4.5473
G1 X120.403 Y108.512 E4.5717
G1 X109.488 Y97.597 E5.1261
G1 X109.488 Y96.919 E5.1505
G1 X121.081 Y108.512 E5.7395
G1 X121.760 Y108.512 E5.7639
G1 X109.488 Y96.240 E6.3873
G1 X109.488 Y95.561 E6.4117
G1 X122.439 Y108.512 E7.0696
G1 X123.118 Y108.512 E7.0940
G1 X109.488 Y94.882 E7.7864
G1 X109.488 Y94.203 E7.8107
G1 X123.797 Y108.512 E8.5376
G1 X124.476 Y108.512 E8.5620
G1 X109.488 Y93.524 E9.3234
G1 X109.488 Y92.846 E9.3478
G1 X125.154 Y108.512 E10.1436
G1 X125.833 Y108.512 E10.1680
G1 X109.488 Y92.167 E10.9983
G1 X109.488 Y91.488 E11.0227
G1 X126.512 Y108.512 E11.8875
G1 X126.512 Y107.833 E11.9119
G1 X110.167 Y91.488 E12.7422
G1 X110.846 Y91.488 E12.7666
G1 X126.512 Y107.154 E13.5625
G1 X126.512 Y106.476 E13.5869
G1 X111.524 Y91.488 E14.3482
G1 X112.203 Y91.488 E14.3726
G1 X126.512 Y105.797 E15.0995
G1 X126.512 Y105.118 E15.1239
G1 X112.882 Y91.488 E15.8163
G1 X113.561 Y91.488 E15.8407
G1 X126.512 Y104.439 E16.4986
G1 X126.512 Y103.760 E16.5230
G1 X114.240 Y91.488 E17.1464
G1 X114.919 Y91.488 E17.1708
G1 X126.512 Y103.081 E17.7597
G1 X126.512 Y102.403 E17.7841
G1 X115.597 Y91.488 E18.3385
G1 X116.276 Y91.488 E18.3629
G1 X126.512 Y101.724 E18.8829
G1 X126.512 Y101.045 E18.9073
G1 X116.955 Y91.488 E19.3928
G1 X117.634 Y91.488 E19.4172
G1 X126.512 Y100.366 E19.8682
G1 X126.512 Y99.687 E19.8926
G1 X118.313 Y91.488 E20.3091
G1 X118.992 Y91.488 E20.3335
G1 X126.512 Y99.008 E20.7155
G1 X126.512 Y98.330 E20.7399
G1 X119.670 Y91.488 E21.0874
G1 X120.349 Y91.488 E21.1118
G1 X126.512 Y97.651 E21.4249
G1 X126.512 Y96.972 E21.4493
G1 X121.028 Y91.488 E21.7279
G1 X121.707 Y91.488 E21.7523
G1 X126.512 Y96.293 E21.9964
G1 X126.512 Y95.614 E22.0207
G1 X122.386 Y91.488 E22.2304
G1 X123.064 Y91.488 E22.2547
G1 X126.512 Y94.936 E22.4299
G1 X126.512 Y94.257 E22.4543
G1 X123.743 Y91.488 E22.5949
G1 X124.422 Y91.488 E22.6193
G1 X126.512 Y93.578 E22.7255
G1 X126.512 Y92.899 E22.7498
G1 X125.101 Y91.488 E22.8215
G1 X125.780 Y91.488 E22.8459
G1 X126.512 Y92.220 E22.8831
G1 X126.512 Y91.541 E22.9075
G1 X126.459 Y91.488 E22.9102
G92 E0.0000
G1 E-5 F2400
; layer 4, Z = 0.800
; feature inner perimeter
G1 Z1.000 F1200
G1 X126.800 Y91.200 F6000
G1 Z0.800 F1200
G1 E0.0000 F2400
G92 E0.0000
G1 X126.800 Y108.800 E0.6322 F2700
G1 X109.200 Y108.800 E1.2644
G1 X109.200 Y91.200 E1.8966
G1 X126.800 Y91.200 E2.5288
G1 X127.280 Y90.720 F6000
G92 E0.0000
G1 X127.280 Y109.280 E0.6667 F2700
G1 X108.720 Y109.280 E1.3334
G1 X108.720 Y90.720 E2.0001
G1 X127.280 Y90.720 E2.6668
; feature outer perimeter
G1 X127.760 Y90.240 F6000
G92 E0.0000
G1 X127.760 Y109.760 E0.7012 F1800
G1 X108.240 Y109.760 E1.4024
G1 X108.240 Y90.240 E2.1035
G1 X127.760 Y90.240 E2.8047
; feature infill
; tool H0.200 W0.600
G1 X126.452 Y100.033 F6000
G92 E0.0000
G1 X118.033 Y108.452 E0.5346 F3600
G1 X109.548 Y108.452 E0.9156
G1 X126.452 Y91.548 E1.9890
G1 X117.967 Y91.548 E2.3700
G1 X109.548 Y99.967 E2.9046
G92 E0.0000
G1 E-5 F2400
; layer 5, Z = 1.000
; feature inner perimeter
; tool H0.200 W0.480
G1 Z1.200 F1200
G1 X109.200 Y91.200 F6000
G1 Z1.000 F1200
G1 E0.0000 F2400
G92 E0.0000
G1 X126.800 Y91.200 E0.6322 F2700
G1 X126.800 Y108.800 E1.2644
G1 X109.200 Y108.800 E1.8966
G1 X109.200 Y91.200 E2.5288
G1 X108.720 Y90.720 F6000
G92 E0.0000
G1 X127.280 Y90.720 E0.6667 F2700
G1 X127.280 Y109.280 E1.3334
G1 X108.720 Y109.280 E2.0001
G1 X108.720 Y90.720 E2.6668
; feature outer perimeter
G1 X108.240 Y90.240 F6000
G92 E0.0000
G1 X127.760 Y90.240 E0.7012 F1800
G1 X127.760 Y109.760 E1.4024
G1 X108.240 Y109.760 E2.1035
G1 X108.240 Y90.240 E2.8047
; feature infill
; tool H0.200 W0.600
G1 X118.033 Y91.548 F6000
G92 E0.0000
G1 X126.452 Y99.967 E0.5346 F3600
G1 X126.452 Y108.452 E0.9156
G1 X109.548 Y91.548 E1.9890
G1 X109.548 Y100.033 E2.3700
G1 X117.967 Y108.452 E2.9046
G92 E0.0000
G1 E-5 F2400
; layer 6, Z = 1.200
; feature inner perimeter
; tool H0.200 W0.480
G1 Z1.400 F1200
G1 X109.200 Y108.800 F6000
G1 Z1.200 F1200
G1 E0.0000 F2400
G92 E0.0000
G1 X109.200 Y91.200 E0.6322 F2700
G1 X126.800 Y91.200 E1.2644
G1 X126.800 Y108.800 E1.8966
G1 X109.200 Y108.800 E2.5288
G1 X108.720 Y109.280 F6000
G92 E0.0000
G1 X108.720 Y90.720 E0.6667 F2700
G1 X127.280 Y90.720 E1.3334
G1 X127.280 Y109.280 E2.0001
G1 X108.720 Y109.280 E2.6668
; feature outer perimeter
G1 X108.240 Y109.760 F6000
G92 E0.0000
G1 X108.240 Y90.240 E0.7012 F1800
G1 X127.760 Y90.240 E1.4024
G1 X127.760 Y109.760 E2.1035
G1 X108.240 Y109.760 E2.8047
; feature infill
; tool H0.200 W0.600
G1 X109.548 Y99.967 F6000
G92 E0.0000
G1 X117.967 Y91.548 E0.5346 F3600
G1 X126.452 Y91.548 E0.9156
G1 X109.548 Y108.452 E1.9890
G1 X118.033 Y108.452 E2.3700
G1 X126.452 Y100.033 E2.9046
G92 E0.0000
G1 E-5 F2400
; layer 7, Z = 1.400
; feature inner perimeter
; tool H0.200 W0.480
G1 Z1.600 F1200
G1 X126.800 Y108.800 F6000
G1 Z1.400 F1200
G1 E0.0000 F2400
G92 E0.0000
G1 X109.200 Y108.800 E0.6322 F2700
G1 X109.200 Y91.200 E1.2644
G1 X126.800 Y91.200 E1.8966
G1 X126.800 Y108.800 E2.5288
G1 X127.280 Y109.280 F6000
G92 E0.0000
G1 X108.720 Y109.280 E0.6667 F2700
G1 X108.720 Y90.720 E1.3334
G1 X127.280 Y90.720 E2.0001
G1 X127.280 Y109.280 E2.6668
; feature outer perimeter
G1 X127.760 Y109.760 F6000
G92 E0.0000
G1 X108.240 Y109.760 E0.7012 F1800
G1 X108.240 Y90.240 E1.4024
G1 X127.760 Y90.240 E2.1035
G1 X127.760 Y109.760 E2.8047
; feature infill
; tool H0.200 W0.600
G1 X117.967 Y108.452 F6000
G92 E0.0000
G1 X109.548 Y100.033 E0.5346 F3600
G1 X109.548 Y91.548 E0.9156
G1 X126.452 Y108.452 E1.9890
G1 X126.452 Y99.967 E2.3700
G1 X118.033 Y91.548 E2.9046
G92 E0.0000
G1 E-5 F2400
; layer 8, Z = 1.600
; feature inner perimeter
; tool H0.200 W0.480
G1 Z1.800 F1200
G1 X126.800 Y91.200 F6000
G1 Z1.600 F1200
G1 E0.0000 F2400
G92 E0.0000
G1 X126.800 Y108.800 E0.6322 F2700
G1 X109.200 Y108.800 E1.2644
G1 X109.200 Y91.200 E1.8966
G1 X126.800 Y91.200 E2.5288
G1 X127.280 Y90.720 F6000
G92 E0.0000
G1 X127.280 Y109.280 E0.6667 F2700
G1 X108.720 Y109.280 E1.3334
G1 X108.720 Y90.720 E2.0001
G1 X127.280 Y90.720 E2.6668
; feature outer perimeter
G1 X127.760 Y90.240 F6000
G92 E0.0000
G1 X127.760 Y109.760 E0.7012 F1800
G1 X108.240 Y109.760 E1.4024
G1 X108.240 Y90.240 E2.1035
G1 X127.760 Y90.240 E2.8047
; feature infill
; tool H0.200 W0.600
G1 X126.452 Y100.033 F6000
G92 E0.0000
G1 X118.033 Y108.452 E0.5346 F3600
G1 X109.548 Y108.452 E0.9156
G1 X126.452 Y91.548 E1.9890
G1 X117.967 Y91.548 E2.3700
G1 X109.548 Y99.967 E2.9046
G92 E0.0000
G1 E-5 F2400
; layer 9, Z = 1.800
; feature inner perimeter
; tool H0.200 W0.480
G1 Z2.000 F1200
G1 X109.200 Y91.200 F6000
G1 Z1.800 F1200
G1 E0.0000 F2400
G92 E0.0000
G1 X126.800 Y91.200 E0.6322 F2700
G1 X126.800 Y108.800 E1.2644
G1 X109.200 Y108.800 E1.8966
G1 X109.200 Y91.200 E2.5288
G1 X108.720 Y90.720 F6000
G92 E0.0000
G1 X127.280 Y90.720 E0.6667 F2700
G1 X127.280 Y109.280 E1.3334
G1 X108.720 Y109.280 E2.0001
G1 X108.720 Y90.720 E2.6668
; feature outer perimeter
G1 X108.240 Y90.240 F6000
G92 E0.0000
G1 X127.760 Y90.240 E0.7012 F1800
G1 X127.760 Y109.760 E1.4024
G1 X108.240 Y109.760 E2.1035
G1 X108.240 Y90.240 E2.8047
; feature infill
; tool H0.200 W0.600
G1 X118.033 Y91.548 F6000
G92 E0.0000
G1 X126.452 Y99.967 E0.5346 F3600
G1 X126.452 Y108.452 E0.9156
G1 X109.548 Y91.548 E1.9890
G1 X109.548 Y100.033 E2.3700
G1 X117.967 Y108.452 E2.9046
G92 E0.0000
G1 E-5 F2400
; layer 10, Z = 2.000
; feature inner perimeter
; tool H0.200 W0.480
G1 Z2.200 F1200
G1 X109.200 Y108.800 F6000
G1 Z2.000 F1200
G1 E0.0000 F2400
G92 E0.0000
G1 X109.200 Y91.200 E0.6322 F2700
G1 X126.800 Y91.200 E1.2644
G1 X126.800 Y108.800 E1.8966
G1 X109.200 Y108.800 E2.5288
G1 X108.720 Y109.280 F6000
G92 E0.0000
G1 X108.720 Y90.720 E0.6667 F2700
G1 X127.280 Y90.720 E1.3334
G1 X127.280 Y109.280 E2.0001
G1 X108.720 Y109.280 E2.6668
; feature outer perimeter
G1 X108.240 Y109.760 F6000
G92 E0.0000
G1 X108.240 Y90.240 E0.7012 F1800
G1 X127.760 Y90.240 E1.4024
G1 X127.760 Y109.760 E2.1035
G1 X108.240 Y109.760 E2.8047
; feature infill
; tool H0.200 W0.600
G1 X109.548 Y99.967 F6000
G92 E0.0000
G1 X117.967 Y91.548 E0.5346 F3600
G1 X126.452 Y91.548 E0.9156
G1 X109.548 Y108.452 E1.9890
G1 X118.033 Y108.452 E2.3700
G1 X126.452 Y100.033 E2.9046
G92 E0.0000
G1 E-5 F2400
; layer 11, Z = 2.200
; feature inner perimeter
; tool H0.200 W0.480
G1 Z2.400 F1200
G1 X126.800 Y108.800 F6000
G1 Z2.200 F1200
G1 E0.0000 F2400
G92 E0.0000
G1 X109.200 Y108.800 E0.6322 F2700
G1 X109.200 Y91.200 E1.2644
G1 X126.800 Y91.200 E1.8966
G1 X126.800 Y108.800 E2.5288
G1 X127.280 Y109.280 F6000
G92 E0.0000
G1 X108.720 Y109.280 E0.6667 F2700
G1 X108.720 Y90.720 E1.3334
G1 X127.280 Y90.720 E2.0001
G1 X127.280 Y109.280 E2.6668
; feature outer perimeter
G1 X127.760 Y109.760 F6000
G92 E0.0000
G1 X108.240 Y109.760 E0.7012 F1800
G1 X108.240 Y90.240 E1.4024
G1 X127.760 Y90.240 E2.1035
G1 X127.760 Y109.760 E2.8047
; feature infill
; tool H0.200 W0.600
G1 X117.967 Y108.452 F6000
G92 E0.0000
G1 X109.548 Y100.033 E0.5346 F3600
G1 X109.548 Y91.548 E0.9156
G1 X126.452 Y108.452 E1.9890
G1 X126.452 Y99.967 E2.3700
G1 X118.033 Y91.548 E2.9046
G92 E0.0000
G1 E-5 F2400
; layer 12, Z = 2.400
; feature inner perimeter
; tool H0.200 W0.480
G1 Z2.600 F1200
G1 X126.800 Y91.200 F6000
G1 Z2.400 F1200
G1 E0.0000 F2400
G92 E0.0000
G1 X126.800 Y108.800 E0.6322 F2700
G1 X109.200 Y108.800 E1.2644
G1 X109.200 Y91.200 E1.8966
G1 X126.800 Y91.200 E2.5288
G1 X127.280 Y90.720 F6000
G92 E0.0000
G1 X127.280 Y109.280 E0.6667 F2700
G1 X108.720 Y109.280 E1.3334
G1 X108.720 Y90.720 E2.0001
G1 X127.280 Y90.720 E2.6668
; feature outer perimeter
G1 X127.760 Y90.240 F6000
G92 E0.0000
G1 X127.760 Y109.760 E0.7012 F1800
G1 X108.240 Y109.760 E1.4024
G1 X108.240 Y90.240 E2.1035
G1 X127.760 Y90.240 E2.8047
; feature infill
; tool H0.200 W0.600
G1 X126.452 Y100.033 F6000
G92 E0.0000
G1 X118.033 Y108.452 E0.5346 F3600
G1 X109.548 Y108.452 E0.9156
G1 X126.452 Y91.548 E1.9890
G1 X117.967 Y91.548 E2.3700
G1 X109.548 Y99.967 E2.9046
G92 E0.0000
G1 E-5 F2400
; layer 13, Z = 2.600
; feature inner perimeter
; tool H0.200 W0.480
G1 Z2.800 F1200
G1 X109.200 Y91.200 F6000
G1 Z2.600 F1200
G1 E0.0000 F2400
G92 E0.0000
G1 X126.800 Y91.200 E0.6322 F2700
G1 X126.800 Y108.800 E1.2644
G1 X109.200 Y108.800 E1.8966
G1 X109.200 Y91.200 E2.5288
G1 X108.720 Y90.720 F6000
G92 E0.0000
G1 X127.280 Y90.720 E0.6667 F2700
G1 X127.280 Y109.280 E1.3334
G1 X108.720 Y109.280 E2.0001
G1 X108.720 Y90.720 E2.6668
; feature outer perimeter
G1 X108.240 Y90.240 F6000
G92 E0.0000
G1 X127.760 Y90.240 E0.7012 F1800
G1 X127.760 Y109.760 E1.4024
G1 X108.240 Y109.760 E2.1035
G1 X108.240 Y90.240 E2.8047
; feature infill
; tool H0.200 W0.600
G1 X118.033 Y91.548 F6000
G92 E0.0000
G1 X126.452 Y99.967 E0.5346 F3600
G1 X126.452 Y108.452 E0.9156
G1 X109.548 Y91.548 E1.9890
G1 X109.548 Y100.033 E2.3700
G1 X117.967 Y108.452 E2.9046
G92 E0.0000
G1 E-5 F2400
; layer 14, Z = 2.800
; feature inner perimeter
; tool H0.200 W0.480
G1 Z3.000 F1200
G1 X109.200 Y108.800 F6000
G1 Z2.800 F1200
G1 E0.0000 F2400
G92 E0.0000
G1 X109.200 Y91.200 E0.6322 F2700
G1 X126.800 Y91.200 E1.2644
G1 X126.800 Y108.800 E1.8966
G1 X109.200 Y108.800 E2.5288
G1 X108.720 Y109.280 F6000
G92 E0.0000
G1 X108.720 Y90.720 E0.6667 F2700
G1 X127.280 Y90.720 E1.3334
G1 X127.280 Y109.280 E2.0001
G1 X108.720 Y109.280 E2.6668
; feature outer perimeter
G1 X108.240 Y109.760 F6000
G92 E0.0000
G1 X108.240 Y90.240 E0.7012 F1800
G1 X127.760 Y90.240 E1.4024
G1 X127.760 Y109.760 E2.1035
G1 X108.240 Y109.760 E2.8047
; feature infill
; tool H0.200 W0.600
G1 X109.548 Y99.967 F6000
G92 E0.0000
G1 X117.967 Y91.548 E0.5346 F3600
G1 X126.452 Y91.548 E0.9156
G1 X109.548 Y108.452 E1.9890
G1 X118.033 Y108.452 E2.3700
G1 X126.452 Y100.033 E2.9046
G92 E0.0000
G1 E-5 F2400
; layer 15, Z = 3.000
; feature inner perimeter
; tool H0.200 W0.480
G1 Z3.200 F1200
G1 X126.800 Y108.800 F6000
G1 Z3.000 F1200
G1 E0.0000 F2400
G92 E0.0000
G1 X109.200 Y108.800 E0.6322 F2700
G1 X109.200 Y91.200 E1.2644
G1 X126.800 Y91.200 E1.8966
G1 X126.800 Y108.800 E2.5288
G1 X127.280 Y109.280 F6000
G92 E0.0000
G1 X108.720 Y109.280 E0.6667 F2700
G1 X108.720 Y90.720 E1.3334
G1 X127.280 Y90.720 E2.0001
G1 X127.280 Y109.280 E2.6668
; feature outer perimeter
G1 X127.760 Y109.760 F6000
G92 E0.0000
G1 X108.240 Y109.760 E0.7012 F1800
G1 X108.240 Y90.240 E1.4024
G1 X127.760 Y90.240 E2.1035
G1 X127.760 Y109.760 E2.8047
; feature solid layer
G1 X126.460 Y99.635 F6000
G92 E0.0000
G1 X126.512 Y99.687 E0.0026 F2880
G1 X126.512 Y99.008 E0.0270
G1 X126.505 Y99.001 E0.0274
G1 X123.064 Y91.488 F6000
G92 E0.0000
G1 X123.312 Y91.735 E0.0126 F2880
G1 X123.311 Y92.414 E0.0369
G1 X122.386 Y91.488 E0.0840
G1 X121.707 Y91.488 E0.1083
G1 X123.118 Y92.899 E0.1800
G1 X122.439 Y92.899 E0.2044
G1 X121.028 Y91.488 E0.2761
G1 X120.349 Y91.488 E0.3005
G1 X121.761 Y92.899 E0.3722
G1 X121.082 Y92.899 E0.3966
G1 X119.670 Y91.488 E0.4683
G1 X119.519 Y91.488 E0.4737
G1 X119.520 Y92.017 E0.4927
G1 X120.403 Y92.899 E0.5375
G1 X119.724 Y92.899 E0.5619
G1 X119.522 Y92.697 E0.5722
G1 X115.597 Y91.488 F6000
G92 E0.0000
G1 X115.673 Y91.563 E0.0038 F2880
G1 X115.673 Y92.243 E0.0282
G1 X114.919 Y91.488 E0.0666
G1 X114.240 Y91.488 E0.0910
G1 X115.651 Y92.899 E0.1626
G1 X114.972 Y92.899 E0.1870
G1 X113.561 Y91.488 E0.2587
G1 X112.882 Y91.488 E0.2831
G1 X114.293 Y92.899 E0.3548
G1 X113.615 Y92.899 E0.3792
G1 X112.203 Y91.488 E0.4509
G1 X112.044 Y91.488 E0.4566
G1 X112.044 Y92.007 E0.4753
G1 X112.936 Y92.899 E0.5206
G1 X112.257 Y92.899 E0.5450
G1 X112.044 Y92.687 E0.5558
; feature infill
; tool H0.200 W0.600
G1 X118.033 Y91.548 F6000
G92 E0.0000
G1 X118.981 Y92.496 E0.0602 F3600
G1 X118.984 Y93.439 E0.1026
G1 X119.925 Y93.439 E0.1448
G1 X125.932 Y99.447 E0.5263
G1 X125.881 Y100.159 E0.5583
G1 X126.452 Y100.240 E0.5842
G1 X126.452 Y108.452 E0.9529
G1 X109.548 Y91.548 E2.0263
G1 X109.548 Y100.033 E2.4073
G1 X117.967 Y108.452 E2.9419
G92 E0.0000
G1 E-5 F2400
; layer 16, Z = 3.200
; feature inner perimeter
; tool H0.200 W0.480
G1 Z3.400 F1200
G1 X109.200 Y108.800 F6000
G1 Z3.200 F1200
G1 E0.0000 F2400
G92 E0.0000
G1 X109.200 Y91.200 E0.6322 F2700
G1 X126.800 Y91.200 E1.2644
G1 X126.800 Y108.800 E1.8966
G1 X109.200 Y108.800 E2.5288
G1 X108.720 Y109.280 F6000
G92 E0.0000
G1 X108.720 Y90.720 E0.6667 F2700
G1 X127.280 Y90.720 E1.3334
G1 X127.280 Y109.280 E2.0001
G1 X108.720 Y109.280 E2.6668
; feature outer perimeter
G1 X108.240 Y109.760 F6000
G92 E0.0000
G1 X108.240 Y90.240 E0.7012 F1800
G1 X127.760 Y90.240 E1.4024
G1 X127.760 Y109.760 E2.1035
G1 X108.240 Y109.760 E2.8047
; feature solid layer
G1 X115.597 Y92.900 F6000
G92 E0.0000
G1 X115.792 Y92.705 E0.0099 F2880
G1 X115.792 Y92.026 E0.0343
G1 X114.918 Y92.900 E0.0786
G1 X114.239 Y92.900 E0.1030
G1 X115.651 Y91.488 E0.1747
G1 X114.972 Y91.488 E0.1991
G1 X113.561 Y92.900 E0.2708
G1 X112.882 Y92.900 E0.2952
G1 X114.293 Y91.488 E0.3669
G1 X113.614 Y91.488 E0.3913
G1 X112.203 Y92.900 E0.4630
G1 X112.155 Y92.900 E0.4647
G1 X112.044 Y92.899 E0.4687
G1 X112.044 Y92.380 E0.4874
G1 X112.936 Y91.488 E0.5327
G1 X112.257 Y91.488 E0.5571
G1 X112.044 Y91.701 E0.5679
G1 X119.393 Y91.819 F6000
G92 E0.0000
G1 X119.724 Y91.488 E0.0168 F2880
G1 X120.403 Y91.488 E0.0412
G1 X119.392 Y92.498 E0.0925
G1 X119.392 Y92.900 E0.1069
G1 X119.670 Y92.900 E0.1169
G1 X121.081 Y91.488 E0.1886
G1 X121.760 Y91.488 E0.2130
G1 X120.349 Y92.900 E0.2847
G1 X121.028 Y92.900 E0.3091
G1 X122.439 Y91.488 E0.3808
G1 X123.118 Y91.488 E0.4052
G1 X121.706 Y92.900 E0.4769
G1 X122.385 Y92.900 E0.5013
G1 X123.312 Y91.973 E0.5483
G1 X123.311 Y92.652 E0.5727
G1 X123.064 Y92.900 E0.5853
G1 X125.047 Y98.384 F6000
G92 E0.0000
G1 X125.612 Y97.819 E0.0287 F2880
G1 X126.290 Y97.819 E0.0531
G1 X125.047 Y99.063 E0.1162
G1 X125.046 Y99.742 E0.1406
G1 X126.512 Y98.276 E0.2151
G1 X126.512 Y98.955 E0.2395
G1 X125.046 Y100.421 E0.3139
G1 X125.046 Y101.100 E0.3383
G1 X126.512 Y99.634 E0.4128
G1 X126.512 Y100.313 E0.4372
G1 X125.309 Y101.515 E0.4983
G1 X125.988 Y101.516 E0.5227
G1 X126.512 Y100.992 E0.5493
; feature infill
; tool H0.200 W0.600
G1 X124.505 Y101.980 F6000
G92 E0.0000
G1 X118.033 Y108.452 E0.4110 F3600
G1 X109.548 Y108.452 E0.7920
G1 X126.452 Y91.548 E1.8654
G1 X123.852 Y91.548 E1.9821
G1 X123.851 Y93.439 E2.0671
G1 X123.725 Y93.439 E2.0727
G1 X118.852 Y93.440 E2.2915
G1 X118.853 Y91.548 E2.3764
G1 X117.967 Y91.548 E2.4162
G1 X116.332 Y93.183 E2.5200
G1 X116.332 Y93.440 E2.5316
G1 X116.075 Y93.440 E2.5431
G1 X109.548 Y99.967 E2.9576
G92 E0.0000
G1 E-5 F2400
; layer 17, Z = 3.400
; feature inner perimeter
; tool H0.200 W0.480
G1 Z3.600 F1200
G1 X109.200 Y91.200 F6000
G1 Z3.400 F1200
G1 E0.0000 F2400
G92 E0.0000
G1 X126.800 Y91.200 E0.6322 F2700
G1 X126.800 Y108.800 E1.2644
G1 X109.200 Y108.800 E1.8966
G1 X109.200 Y91.200 E2.5288
G1 X108.720 Y90.720 F6000
G92 E0.0000
G1 X127.280 Y90.720 E0.6667 F2700
G1 X127.280 Y109.280 E1.3334
G1 X108.720 Y109.280 E2.0001
G1 X108.720 Y90.720 E2.6668
; feature outer perimeter
G1 X108.240 Y90.240 F6000
G92 E0.0000
G1 X127.760 Y90.240 E0.7012 F1800
G1 X127.760 Y109.760 E1.4024
G1 X108.240 Y109.760 E2.1035
G1 X108.240 Y90.240 E2.8047
; feature solid layer
G1 X112.044 Y92.687 F6000
G92 E0.0000
G1 X112.257 Y92.900 E0.0108 F2880
G1 X112.266 Y92.900 E0.0112
G1 X112.936 Y92.900 E0.0352
G1 X112.044 Y92.007 E0.0805
G1 X112.044 Y91.488 E0.0992
G1 X112.203 Y91.488 E0.1049
G1 X113.615 Y92.900 E0.1766
G1 X114.294 Y92.900 E0.2010
G1 X112.882 Y91.488 E0.2727
G1 X113.561 Y91.488 E0.2971
G1 X114.973 Y92.900 E0.3688
G1 X115.651 Y92.900 E0.3932
G1 X114.240 Y91.488 E0.4649
G1 X114.919 Y91.488 E0.4893
G1 X115.910 Y92.480 E0.5397
G1 X115.910 Y91.801 E0.5641
G1 X115.597 Y91.488 E0.5800
G1 X119.271 Y92.446 F6000
G92 E0.0000
G1 X119.724 Y92.900 E0.0231 F2880
G1 X120.403 Y92.900 E0.0474
G1 X119.271 Y91.767 E0.1050
G1 X119.271 Y91.488 E0.1150
G1 X119.670 Y91.488 E0.1293
G1 X121.082 Y92.900 E0.2010
G1 X121.761 Y92.900 E0.2254
G1 X120.349 Y91.488 E0.2971
G1 X121.028 Y91.488 E0.3215
G1 X122.440 Y92.900 E0.3932
G1 X123.058 Y92.900 E0.4155
G1 X123.118 Y92.900 E0.4176
G1 X121.707 Y91.488 E0.4893
G1 X122.386 Y91.488 E0.5137
G1 X123.311 Y92.414 E0.5607
G1 X123.312 Y91.735 E0.5851
G1 X123.064 Y91.488 E0.5977
G1 X125.999 Y97.817 F6000
G92 E0.0000
G1 X126.512 Y98.330 E0.0261 F2880
G1 X126.512 Y99.008 E0.0504
G1 X125.320 Y97.816 E0.1110
G1 X125.047 Y97.818 E0.1209
G1 X125.047 Y98.222 E0.1354
G1 X126.512 Y99.687 E0.2098
G1 X126.512 Y100.366 E0.2342
G1 X125.047 Y98.901 E0.3086
G1 X125.046 Y99.579 E0.3330
G1 X126.512 Y101.045 E0.4074
G1 X126.512 Y101.516 E0.4243
G1 X126.304 Y101.516 E0.4318
G1 X125.046 Y100.258 E0.4957
G1 X125.046 Y100.936 E0.5201
G1 X125.625 Y101.516 E0.5495
; feature infill
; tool H0.200 W0.600
G1 X117.967 Y108.452 F6000
G92 E0.0000
G1 X109.548 Y100.033 E0.5346 F3600
G1 X109.548 Y91.548 E0.9156
G1 X126.452 Y108.452 E1.9890
G1 X126.452 Y102.056 E2.2762
G1 X124.505 Y102.055 E2.3636
G1 X124.507 Y98.022 E2.5447
G1 X119.925 Y93.440 E2.8356
G1 X118.730 Y93.440 E2.8893
G1 X118.731 Y92.245 E2.9429
G1 X118.033 Y91.548 E2.9872
G92 E0.0000
G1 E-5 F2400
; layer 18, Z = 3.600
; feature inner perimeter
; tool H0.200 W0.480
G1 Z3.800 F1200
G1 X126.800 Y91.200 F6000
G1 Z3.600 F1200
G1 E0.0000 F2400
G92 E0.0000
G1 X126.800 Y108.800 E0.6322 F2700
G1 X109.200 Y108.800 E1.2644
G1 X109.200 Y91.200 E1.8966
G1 X126.800 Y91.200 E2.5288
G1 X127.280 Y90.720 F6000
G92 E0.0000
G1 X127.280 Y109.280 E0.6667 F2700
G1 X108.720 Y109.280 E1.3334
G1 X108.720 Y90.720 E2.0001
G1 X127.280 Y90.720 E2.6668
; feature outer perimeter
G1 X127.760 Y90.240 F6000
G92 E0.0000
G1 X127.760 Y109.760 E0.7012 F1800
G1 X108.240 Y109.760 E1.4024
G1 X108.240 Y90.240 E2.1035
G1 X127.760 Y90.240 E2.8047
; feature solid layer
G1 X123.064 Y92.900 F6000
G92 E0.0000
G1 X123.311 Y92.652 E0.0126 F2880
G1 X123.312 Y91.973 E0.0370
G1 X122.385 Y92.900 E0.0840
G1 X121.706 Y92.900 E0.1084
G1 X123.118 Y91.488 E0.1801
G1 X122.439 Y91.488 E0.2045
G1 X121.027 Y92.900 E0.2762
G1 X120.348 Y92.900 E0.3006
G1 X121.760 Y91.488 E0.3723
G1 X121.081 Y91.488 E0.3967
G1 X119.670 Y92.900 E0.4685
G1 X119.149 Y92.900 E0.4872
G1 X119.149 Y92.742 E0.4928
G1 X120.403 Y91.488 E0.5565
G1 X119.724 Y91.488 E0.5809
G1 X119.149 Y92.063 E0.6101
G1 X115.597 Y92.900 F6000
G92 E0.0000
G1 X116.029 Y92.468 E0.0220 F2880
G1 X116.028 Y91.789 E0.0463
G1 X114.918 Y92.900 E0.1027
G1 X114.239 Y92.900 E0.1271
G1 X115.651 Y91.488 E0.1989
G1 X114.972 Y91.488 E0.2232
G1 X113.560 Y92.900 E0.2950
G1 X112.881 Y92.900 E0.3193
G1 X114.293 Y91.488 E0.3911
G1 X113.614 Y91.488 E0.4154
G1 X112.203 Y92.900 E0.4872
G1 X112.155 Y92.900 E0.4889
G1 X112.044 Y92.899 E0.4929
G1 X112.044 Y92.380 E0.5115
G1 X112.936 Y91.488 E0.5568
G1 X112.257 Y91.488 E0.5812
G1 X112.044 Y91.701 E0.5920
G1 X125.047 Y98.384 F6000
G92 E0.0000
G1 X125.616 Y97.814 E0.0289 F2880
G1 X126.295 Y97.815 E0.0533
G1 X125.047 Y99.063 E0.1167
G1 X125.046 Y99.742 E0.1411
G1 X126.512 Y98.276 E0.2155
G1 X126.512 Y98.955 E0.2399
G1 X125.046 Y100.421 E0.3144
G1 X125.046 Y101.100 E0.3388
G1 X126.512 Y99.634 E0.4133
G1 X126.512 Y100.313 E0.4376
G1 X125.309 Y101.515 E0.4987
G1 X125.988 Y101.516 E0.5231
G1 X126.512 Y100.992 E0.5497
; feature infill
; tool H0.200 W0.600
G1 X124.505 Y101.980 F6000
G92 E0.0000
G1 X118.033 Y108.452 E0.4110 F3600
G1 X109.548 Y108.452 E0.7920
G1 X126.452 Y91.548 E1.8654
G1 X123.852 Y91.548 E1.9821
G1 X123.851 Y93.439 E2.0671
G1 X123.725 Y93.439 E2.0727
G1 X123.598 Y93.440 E2.0784
G1 X123.472 Y93.440 E2.0841
G1 X118.608 Y93.440 E2.3025
G1 X118.609 Y91.548 E2.3874
G1 X117.967 Y91.548 E2.4163
G1 X116.569 Y92.946 E2.5050
G1 X116.569 Y93.440 E2.5272
G1 X116.075 Y93.440 E2.5494
G1 X109.548 Y99.967 E2.9639
G92 E0.0000
G1 E-5 F2400
; layer 19, Z = 3.800
; feature inner perimeter
; tool H0.200 W0.480
G1 Z4.000 F1200
G1 X111.852 Y93.091 F6000
G1 Z3.800 F1200
G1 E0.0000 F2400
G92 E0.0000
G1 X115.866 Y93.091 E0.1442 F2700
G1 X115.865 Y91.200 E0.2121
G1 X119.326 Y91.200 E0.3364
G1 X119.331 Y93.091 E0.4044
G1 X123.503 Y93.091 E0.5543
G1 X123.504 Y91.200 E0.6222
G1 X126.800 Y91.200 E0.7406
G1 X126.800 Y97.629 E0.9715
G1 X126.410 Y97.629 E0.9855
G1 X126.251 Y99.860 E1.0659
G1 X126.800 Y99.938 E1.0858
G1 X126.800 Y108.800 E1.4041
G1 X109.200 Y108.800 E2.0363
G1 X109.200 Y91.200 E2.6685
G1 X111.852 Y91.200 E2.7638
G1 X111.852 Y93.091 E2.8317
G1 X112.332 Y92.611 F6000
G92 E0.0000
G1 X115.385 Y92.611 E0.1097 F2700
G1 X115.384 Y90.720 E0.1776
G1 X119.805 Y90.720 E0.3364
G1 X119.810 Y92.611 E0.4044
G1 X123.023 Y92.611 E0.5198
G1 X123.024 Y90.720 E0.5877
G1 X127.280 Y90.720 E0.7406
G1 X127.280 Y98.110 E1.0060
G1 X126.857 Y98.109 E1.0212
G1 X126.762 Y99.448 E1.0694
G1 X127.280 Y99.522 E1.0882
G1 X127.280 Y109.280 E1.4387
G1 X108.720 Y109.280 E2.1054
G1 X108.720 Y90.720 E2.7721
G1 X112.331 Y90.720 E2.9019
G1 X112.332 Y92.611 E2.9698
; feature outer perimeter
G1 X112.812 Y92.131 F6000
G92 E0.0000
G1 X114.905 Y92.131 E0.0752 F1800
G1 X114.904 Y90.240 E0.1431
G1 X120.284 Y90.240 E0.3364
G1 X120.288 Y92.131 E0.4043
G1 X122.544 Y92.131 E0.4853
G1 X122.545 Y90.240 E0.5533
G1 X127.760 Y90.240 E0.7406
G1 X127.760 Y98.590 E1.0405
G1 X127.304 Y98.590 E1.0569
G1 X127.273 Y99.036 E1.0730
G1 X127.760 Y99.105 E1.0907
G1 X127.760 Y109.760 E1.4734
G1 X108.240 Y109.760 E2.1746
G1 X108.240 Y90.240 E2.8757
G1 X112.811 Y90.240 E3.0399
G1 X112.812 Y92.131 E3.1079
; feature solid layer
G1 X114.905 Y92.131 F6000
G1 X114.905 Y91.927
G1 X119.027 Y91.524
G92 E0.0000
G1 X119.039 Y91.536 E0.0006 F2880
G1 X119.041 Y92.216 E0.0250
G1 X119.027 Y92.202 E0.0257
G1 X119.027 Y92.881 E0.0501
G1 X119.042 Y92.896 E0.0509
G1 X125.995 Y97.812 F6000
G92 E0.0000
G1 X126.101 Y97.919 E0.0054 F2880
G1 X126.056 Y98.552 E0.0282
G1 X125.316 Y97.812 E0.0658
G1 X125.048 Y97.814 E0.0755
G1 X125.047 Y97.818 E0.0757
G1 X125.047 Y98.222 E0.0902
G1 X126.011 Y99.186 E0.1391
G1 X125.966 Y99.820 E0.1620
G1 X125.047 Y98.901 E0.2086
G1 X125.046 Y99.579 E0.2330
G1 X126.512 Y101.045 E0.3075
G1 X126.512 Y101.516 E0.3244
G1 X126.304 Y101.516 E0.3318
G1 X125.046 Y100.258 E0.3957
G1 X125.046 Y100.936 E0.4201
G1 X125.625 Y101.516 E0.4495
G1 X126.512 Y100.366 F6000
G92 E0.0000
G1 X126.304 Y100.158 E0.0106 F2880
; feature infill
; tool H0.200 W0.600
G1 X117.967 Y108.452 F6000
G92 E0.0000
G1 X109.548 Y100.033 E0.5346 F3600
G1 X109.548 Y91.548 E0.9156
G1 X126.452 Y108.452 E1.9890
G1 X126.452 Y102.056 E2.2762
G1 X124.505 Y102.055 E2.3636
G1 X124.507 Y98.022 E2.5447
G1 X119.925 Y93.439 E2.8357
G1 X119.583 Y93.439 E2.8510
G1 X118.486 Y93.440 E2.9003
G1 X118.487 Y92.002 E2.9648
G1 X118.033 Y91.548 E2.9937
G92 E0.0000
G1 E-5 F2400
; layer 20, Z = 4.000
; feature inner perimeter
; tool H0.200 W0.480
G1 Z4.200 F1200
G1 X119.201 Y91.200 F6000
G1 Z4.000 F1200
G1 E0.0000 F2400
G92 E0.0000
G1 X119.200 Y93.092 E0.0679 F2700
G1 X123.377 Y93.092 E0.2180
G1 X123.378 Y91.200 E0.2859
G1 X126.800 Y91.200 E0.4088
G1 X126.800 Y97.627 E0.6397
G1 X124.855 Y97.626 E0.7096
G1 X124.854 Y101.707 E0.8562
G1 X126.800 Y101.708 E0.9261
G1 X126.800 Y108.800 E1.1808
G1 X109.200 Y108.800 E1.8130
G1 X109.200 Y91.200 E2.4452
G1 X111.963 Y91.200 E2.5445
G1 X111.963 Y93.092 E2.6124
G1 X115.984 Y93.092 E2.7569
G1 X115.983 Y91.200 E2.8248
G1 X119.201 Y91.200 E2.9404
G1 X119.681 Y90.720 F6000
G92 E0.0000
G1 X119.680 Y92.612 E0.0679 F2700
G1 X122.897 Y92.612 E0.1835
G1 X122.898 Y90.720 E0.2514
G1 X127.280 Y90.720 E0.4088
G1 X127.280 Y98.108 E0.6742
G1 X125.335 Y98.107 E0.7441
G1 X125.334 Y101.227 E0.8562
G1 X127.280 Y101.228 E0.9261
G1 X127.280 Y109.280 E1.2153
G1 X108.720 Y109.280 E1.8820
G1 X108.720 Y90.720 E2.5487
G1 X112.442 Y90.720 E2.6824
G1 X112.443 Y92.612 E2.7503
G1 X115.504 Y92.612 E2.8603
G1 X115.503 Y90.720 E2.9282
G1 X119.681 Y90.720 E3.0783
; feature outer perimeter
G1 X120.162 Y90.240 F6000
G92 E0.0000
G1 X120.161 Y92.132 E0.0679 F1800
G1 X122.417 Y92.132 E0.1490
G1 X122.418 Y90.240 E0.2169
G1 X127.760 Y90.240 E0.4088
G1 X127.760 Y98.588 E0.7087
G1 X125.815 Y98.587 E0.7786
G1 X125.814 Y100.748 E0.8562
G1 X127.760 Y100.749 E0.9261
G1 X127.760 Y109.760 E1.2498
G1 X108.240 Y109.760 E1.9510
G1 X108.240 Y90.240 E2.6521
G1 X112.922 Y90.240 E2.8203
G1 X112.923 Y92.132 E2.8883
G1 X115.024 Y92.132 E2.9637
G1 X115.023 Y90.240 E3.0317
G1 X120.162 Y90.240 E3.2163
; feature solid layer
G1 X118.906 Y91.627 F6000
G92 E0.0000
G1 X118.913 Y91.620 E0.0004 F2880
G1 X118.913 Y92.299 E0.0248
G1 X118.905 Y92.307 E0.0251
; feature infill
; tool H0.200 W0.600
G1 X124.505 Y101.980 F6000
G92 E0.0000
G1 X118.033 Y108.452 E0.4110 F3600
G1 X109.548 Y108.452 E0.7920
G1 X126.452 Y91.548 E1.8654
G1 X123.725 Y91.548 E1.9878
G1 X123.724 Y93.440 E2.0727
G1 X119.452 Y93.440 E2.2646
G1 X118.365 Y93.440 E2.3134
G1 X118.366 Y91.548 E2.3984
G1 X117.967 Y91.548 E2.4163
G1 X116.332 Y93.183 E2.5201
G1 X116.332 Y93.440 E2.5316
G1 X116.075 Y93.440 E2.5432
G1 X109.548 Y99.967 E2.9577
G92 E0.0000
G1 E-5 F2400
; layer 21, Z = 4.200
; feature inner perimeter
; tool H0.200 W0.480
G1 Z4.400 F1200
G1 X112.074 Y93.092 F6000
G1 Z4.200 F1200
G1 E0.0000 F2400
G92 E0.0000
G1 X116.103 Y93.092 E0.1447 F2700
G1 X116.102 Y91.200 E0.2126
G1 X119.079 Y91.200 E0.3196
G1 X119.078 Y93.092 E0.3876
G1 X123.250 Y93.092 E0.5374
G1 X123.251 Y91.200 E0.6054
G1 X126.800 Y91.200 E0.7328
G1 X126.800 Y97.625 E0.9636
G1 X124.856 Y97.624 E1.0335
G1 X124.854 Y101.705 E1.1801
G1 X126.800 Y101.706 E1.2500
G1 X126.800 Y108.800 E1.5048
G1 X109.200 Y108.800 E2.1370
G1 X109.200 Y91.200 E2.7692
G1 X112.074 Y91.200 E2.8724
G1 X112.074 Y93.092 E2.9404
G1 X112.554 Y92.612 F6000
G92 E0.0000
G1 X115.622 Y92.612 E0.1102 F2700
G1 X115.621 Y90.720 E0.1782
G1 X119.560 Y90.720 E0.3196
G1 X119.559 Y92.612 E0.3876
G1 X122.770 Y92.612 E0.5029
G1 X122.771 Y90.720 E0.5709
G1 X127.280 Y90.720 E0.7328
G1 X127.280 Y98.105 E0.9981
G1 X125.335 Y98.105 E1.0680
G1 X125.334 Y101.225 E1.1801
G1 X127.280 Y101.226 E1.2500
G1 X127.280 Y109.280 E1.5393
G1 X108.720 Y109.280 E2.2060
G1 X108.720 Y90.720 E2.8727
G1 X112.553 Y90.720 E3.0104
G1 X112.554 Y92.612 E3.0783
; feature outer perimeter
G1 X113.034 Y92.132 F6000
G92 E0.0000
G1 X115.142 Y92.132 E0.0757 F1800
G1 X115.141 Y90.240 E0.1437
G1 X120.040 Y90.240 E0.3196
G1 X120.039 Y92.132 E0.3876
G1 X122.291 Y92.132 E0.4685
G1 X122.292 Y90.240 E0.5364
G1 X127.760 Y90.240 E0.7329
G1 X127.760 Y98.586 E1.0326
G1 X125.815 Y98.585 E1.1025
G1 X125.814 Y100.746 E1.1801
G1 X127.760 Y100.746 E1.2500
G1 X127.760 Y109.760 E1.5738
G1 X108.240 Y109.760 E2.2750
G1 X108.240 Y90.240 E2.9761
G1 X113.033 Y90.240 E3.1483
G1 X113.034 Y92.132 E3.2163
; feature solid layer
G1 X115.142 Y92.132 F6000
G1 X115.142 Y92.068
G1 X118.784 Y91.959
G92 E0.0000
G1 X118.791 Y91.966 E0.0004 F2880
G1 X118.791 Y92.645 E0.0247
G1 X118.783 Y92.637 E0.0251
; feature infill
; tool H0.200 W0.600
G1 X118.033 Y91.548 F6000
G92 E0.0000
G1 X118.244 Y91.758 E0.0134 F3600
G1 X118.243 Y93.440 E0.0889
G1 X119.330 Y93.440 E0.1377
G1 X119.925 Y93.440 E0.1644
G1 X124.507 Y98.022 E0.4554
G1 X124.506 Y102.053 E0.6364
G1 X126.452 Y102.054 E0.7238
G1 X126.452 Y108.452 E1.0111
G1 X109.548 Y91.548 E2.0845
G1 X109.548 Y100.033 E2.4655
G1 X117.967 Y108.452 E3.0001
G92 E0.0000
G1 E-5 F2400
; layer 22, Z = 4.400
; feature inner perimeter
; tool H0.200 W0.480
G1 Z4.600 F1200
G1 X109.200 Y108.800 F6000
G1 Z4.400 F1200
G1 E0.0000 F2400
G92 E0.0000
G1 X109.200 Y91.200 E0.6322 F2700
G1 X112.185 Y91.200 E0.7394
G1 X112.185 Y93.092 E0.8074
G1 X116.221 Y93.092 E0.9523
G1 X116.220 Y91.200 E1.0203
G1 X118.957 Y91.200 E1.1186
G1 X118.956 Y93.092 E1.1866
G1 X123.124 Y93.092 E1.3363
G1 X123.125 Y91.200 E1.4042
G1 X126.800 Y91.200 E1.5362
G1 X126.800 Y97.623 E1.7670
G1 X124.856 Y97.622 E1.8368
G1 X124.854 Y101.703 E1.9834
G1 X126.800 Y101.704 E2.0533
G1 X126.800 Y108.800 E2.3082
G1 X109.200 Y108.800 E2.9404
G1 X108.720 Y109.280 F6000
G92 E0.0000
G1 X108.720 Y90.720 E0.6667 F2700
G1 X112.664 Y90.720 E0.8084
G1 X112.665 Y92.612 E0.8763
G1 X115.741 Y92.612 E0.9868
G1 X115.740 Y90.720 E1.0548
G1 X119.438 Y90.720 E1.1876
G1 X119.437 Y92.612 E1.2556
G1 X122.644 Y92.612 E1.3708
G1 X122.645 Y90.720 E1.4387
G1 X127.280 Y90.720 E1.6052
G1 X127.280 Y98.103 E1.8704
G1 X125.336 Y98.102 E1.9403
G1 X125.334 Y101.223 E2.0524
G1 X127.280 Y101.224 E2.1223
G1 X127.280 Y109.280 E2.4116
G1 X108.720 Y109.280 E3.0783
; feature outer perimeter
G1 X108.240 Y109.760 F6000
G92 E0.0000
G1 X108.240 Y90.240 E0.7012 F1800
G1 X113.144 Y90.240 E0.8773
G1 X113.145 Y92.132 E0.9453
G1 X115.261 Y92.132 E1.0213
G1 X115.260 Y90.240 E1.0892
G1 X119.918 Y90.240 E1.2566
G1 X119.917 Y92.132 E1.3245
G1 X122.164 Y92.132 E1.4053
G1 X122.165 Y90.240 E1.4732
G1 X127.760 Y90.240 E1.6742
G1 X127.760 Y98.583 E1.9739
G1 X125.816 Y98.583 E2.0437
G1 X125.815 Y100.743 E2.1213
G1 X127.760 Y100.744 E2.1912
G1 X127.760 Y109.760 E2.5151
G1 X108.240 Y109.760 E3.2163
; feature solid layer
G1 X118.661 Y92.550 F6000
G92 E0.0000
G1 X118.669 Y92.543 E0.0004 F2880
G1 X118.669 Y91.864 E0.0248
G1 X118.662 Y91.871 E0.0251
; feature infill
; tool H0.200 W0.600
G1 X124.506 Y101.979 F6000
G92 E0.0000
G1 X118.033 Y108.452 E0.4110 F3600
G1 X109.548 Y108.452 E0.7920
G1 X126.452 Y91.548 E1.8654
G1 X123.472 Y91.548 E1.9992
G1 X123.471 Y93.440 E2.0841
G1 X119.208 Y93.440 E2.2756
G1 X118.121 Y93.441 E2.3244
G1 X118.122 Y91.548 E2.4094
G1 X117.967 Y91.548 E2.4164
G1 X116.569 Y92.946 E2.5051
G1 X116.569 Y93.440 E2.5273
G1 X116.075 Y93.440 E2.5495
G1 X109.548 Y99.967 E2.9640
G92 E0.0000
G1 E-5 F2400
; layer 23, Z = 4.600
; feature inner perimeter
; tool H0.200 W0.480
G1 Z4.800 F1200
G1 X112.296 Y93.092 F6000
G1 Z4.600 F1200
G1 E0.0000 F2400
G92 E0.0000
G1 X116.340 Y93.092 E0.1452 F2700
G1 X116.339 Y91.200 E0.2132
G1 X118.836 Y91.200 E0.3029
G1 X118.835 Y93.092 E0.3709
G1 X122.997 Y93.092 E0.5204
G1 X122.998 Y91.200 E0.5883
G1 X126.800 Y91.200 E0.7249
G1 X126.800 Y97.621 E0.9555
G1 X124.856 Y97.620 E1.0254
G1 X124.854 Y101.701 E1.1720
G1 X126.800 Y101.702 E1.2418
G1 X126.800 Y108.800 E1.4968
G1 X109.200 Y108.800 E2.1290
G1 X109.200 Y91.200 E2.7612
G1 X112.296 Y91.200 E2.8724
G1 X112.296 Y93.092 E2.9404
G1 X112.776 Y92.612 F6000
G92 E0.0000
G1 X115.859 Y92.612 E0.1107 F2700
G1 X115.858 Y90.720 E0.1787
G1 X119.316 Y90.720 E0.3029
G1 X119.315 Y92.612 E0.3709
G1 X122.517 Y92.612 E0.4859
G1 X122.518 Y90.720 E0.5539
G1 X127.280 Y90.720 E0.7249
G1 X127.280 Y98.101 E0.9900
G1 X125.336 Y98.100 E1.0599
G1 X125.335 Y101.221 E1.1720
G1 X127.280 Y101.222 E1.2419
G1 X127.280 Y109.280 E1.5313
G1 X108.720 Y109.280 E2.1980
G1 X108.720 Y90.720 E2.8647
G1 X112.775 Y90.720 E3.0104
G1 X112.776 Y92.612 E3.0783
; feature outer perimeter
G1 X113.256 Y92.132 F6000
G92 E0.0000
G1 X115.379 Y92.132 E0.0763 F1800
G1 X115.378 Y90.240 E0.1442
G1 X119.796 Y90.240 E0.3029
G1 X119.795 Y92.132 E0.3709
G1 X122.038 Y92.132 E0.4514
G1 X122.039 Y90.240 E0.5194
G1 X127.760 Y90.240 E0.7249
G1 X127.760 Y98.581 E1.0245
G1 X125.816 Y98.580 E1.0944
G1 X125.815 Y100.741 E1.1720
G1 X127.760 Y100.742 E1.2419
G1 X127.760 Y109.760 E1.5658
G1 X108.240 Y109.760 E2.2670
G1 X108.240 Y90.240 E2.9682
G1 X113.255 Y90.240 E3.1483
G1 X113.256 Y92.132 E3.2163
; feature solid layer
G1 X118.540 Y92.394 F6000
G92 E0.0000
G1 X118.547 Y92.401 E0.0004 F2880
G1 X118.547 Y91.723 E0.0247
G1 X118.540 Y91.715 E0.0251
; feature infill
; tool H0.200 W0.600
G1 X119.925 Y93.440 F6000
G92 E0.0000
G1 X124.508 Y98.023 E0.2910 F3600
G1 X124.506 Y102.049 E0.4718
G1 X126.452 Y102.049 E0.5591
G1 X126.452 Y108.452 E0.8466
G1 X109.548 Y91.548 E1.9200
G1 X109.548 Y100.033 E2.3010
G1 X117.967 Y108.452 E2.8356
G92 E0.0000
G1 E-5 F2400
; layer 24, Z = 4.800
; feature inner perimeter
; tool H0.200 W0.480
G1 Z5.000 F1200
G1 X109.200 Y108.800 F6000
G1 Z4.800 F1200
G1 E0.0000 F2400
G92 E0.0000
G1 X109.200 Y91.200 E0.6322 F2700
G1 X112.407 Y91.200 E0.7474
G1 X112.407 Y93.092 E0.8154
G1 X116.458 Y93.092 E0.9609
G1 X116.457 Y91.200 E1.0288
G1 X118.714 Y91.200 E1.1099
G1 X118.713 Y93.092 E1.1779
G1 X122.871 Y93.092 E1.3272
G1 X122.872 Y91.200 E1.3952
G1 X126.800 Y91.200 E1.5363
G1 X126.800 Y97.619 E1.7669
G1 X124.857 Y97.618 E1.8367
G1 X124.855 Y101.699 E1.9833
G1 X126.800 Y101.699 E2.0531
G1 X126.800 Y108.800 E2.3082
G1 X109.200 Y108.800 E2.9404
G1 X108.720 Y109.280 F6000
G92 E0.0000
G1 X108.720 Y90.720 E0.6667 F2700
G1 X112.886 Y90.720 E0.8164
G1 X112.887 Y92.612 E0.8843
G1 X115.978 Y92.612 E0.9953
G1 X115.977 Y90.720 E1.0633
G1 X119.194 Y90.720 E1.1789
G1 X119.193 Y92.612 E1.2468
G1 X122.391 Y92.612 E1.3617
G1 X122.392 Y90.720 E1.4297
G1 X127.280 Y90.720 E1.6053
G1 X127.280 Y98.099 E1.8703
G1 X125.336 Y98.098 E1.9401
G1 X125.335 Y101.219 E2.0522
G1 X127.280 Y101.220 E2.1221
G1 X127.280 Y109.280 E2.4116
G1 X108.720 Y109.280 E3.0783
; feature outer perimeter
G1 X108.240 Y109.760 F6000
G92 E0.0000
G1 X108.240 Y90.240 E0.7012 F1800
G1 X113.366 Y90.240 E0.8853
G1 X113.367 Y92.132 E0.9533
G1 X115.498 Y92.132 E1.0298
G1 X115.497 Y90.240 E1.0978
G1 X119.674 Y90.240 E1.2478
G1 X119.673 Y92.132 E1.3158
G1 X121.911 Y92.132 E1.3962
G1 X121.912 Y90.240 E1.4642
G1 X127.760 Y90.240 E1.6742
G1 X127.760 Y98.579 E1.9738
G1 X125.816 Y98.578 E2.0436
G1 X125.815 Y100.739 E2.1212
G1 X127.760 Y100.740 E2.1911
G1 X127.760 Y109.760 E2.5151
G1 X108.240 Y109.760 E3.2163
; feature solid layer
G1 X118.418 Y92.794 F6000
G92 E0.0000
G1 X118.425 Y92.787 E0.0004 F2880
G1 X118.425 Y92.108 E0.0248
G1 X118.418 Y92.115 E0.0251
; feature infill
; tool H0.200 W0.600
G1 X124.507 Y101.979 F6000
G92 E0.0000
G1 X118.033 Y108.452 E0.4111 F3600
G1 X109.548 Y108.452 E0.7921
G1 X126.452 Y91.548 E1.8655
G1 X123.220 Y91.548 E2.0106
G1 X123.219 Y93.440 E2.0956
G1 X118.965 Y93.440 E2.2866
G1 X117.877 Y93.441 E2.3354
G1 X117.878 Y91.637 E2.4164
G1 X116.806 Y92.709 E2.4845
G1 X116.806 Y93.440 E2.5174
G1 X116.075 Y93.440 E2.5502
G1 X109.548 Y99.967 E2.9647
G92 E0.0000
G1 E-5 F2400
; layer 25, Z = 5.000
; feature inner perimeter
; tool H0.200 W0.480
G1 Z5.200 F1200
G1 X112.519 Y93.092 F6000
G1 Z5.000 F1200
G1 E0.0000 F2400
G92 E0.0000
G1 X116.577 Y93.092 E0.1458 F2700
G1 X116.576 Y91.200 E0.2137
G1 X118.592 Y91.200 E0.2862
G1 X118.591 Y93.092 E0.3541
G1 X122.744 Y93.092 E0.5033
G1 X122.745 Y91.200 E0.5713
G1 X126.800 Y91.200 E0.7170
G1 X126.800 Y97.616 E0.9474
G1 X124.857 Y97.616 E1.0172
G1 X124.855 Y101.696 E1.1638
G1 X126.800 Y101.697 E1.2337
G1 X126.800 Y108.800 E1.4888
G1 X109.200 Y108.800 E2.1210
G1 X109.200 Y91.200 E2.7532
G1 X112.518 Y91.200 E2.8724
G1 X112.519 Y93.092 E2.9404
G1 X112.998 Y92.612 F6000
G92 E0.0000
G1 X116.096 Y92.612 E0.1113 F2700
G1 X116.095 Y90.720 E0.1793
G1 X119.072 Y90.720 E0.2862
G1 X119.071 Y92.612 E0.3542
G1 X122.265 Y92.612 E0.4689
G1 X122.266 Y90.720 E0.5368
G1 X127.280 Y90.720 E0.7170
G1 X127.280 Y98.097 E0.9819
G1 X125.337 Y98.096 E1.0518
G1 X125.335 Y101.217 E1.1639
G1 X127.280 Y101.217 E1.2337
G1 X127.280 Y109.280 E1.5233
G1 X108.720 Y109.280 E2.1900
G1 X108.720 Y90.720 E2.8567
G1 X112.997 Y90.720 E3.0104
G1 X112.998 Y92.612 E3.0783
; feature outer perimeter
G1 X113.478 Y92.132 F6000
G92 E0.0000
G1 X115.616 Y92.132 E0.0768 F1800
G1 X115.615 Y90.240 E0.1448
G1 X119.552 Y90.240 E0.2862
G1 X119.551 Y92.132 E0.3542
G1 X121.785 Y92.132 E0.4344
G1 X121.786 Y90.240 E0.5024
G1 X127.760 Y90.240 E0.7170
G1 X127.760 Y98.577 E1.0164
G1 X125.816 Y98.576 E1.0863
G1 X125.816 Y100.737 E1.1639
G1 X127.760 Y100.738 E1.2337
G1 X127.760 Y109.760 E1.5578
G1 X108.240 Y109.760 E2.2590
G1 X108.240 Y90.240 E2.9602
G1 X113.477 Y90.240 E3.1483
G1 X113.478 Y92.132 E3.2163
; feature solid layer
G1 X118.296 Y92.150 F6000
G92 E0.0000
G1 X118.303 Y92.158 E0.0004 F2880
G1 X118.303 Y92.836 E0.0247
G1 X118.296 Y92.829 E0.0251
; feature infill
; tool H0.200 W0.600
G1 X119.926 Y93.440 F6000
G92 E0.0000
G1 X124.509 Y98.023 E0.2910 F3600
G1 X124.507 Y102.044 E0.4716
G1 X126.452 Y102.045 E0.5589
G1 X126.452 Y108.452 E0.8466
G1 X109.548 Y91.548 E1.9200
G1 X109.548 Y100.033 E2.3010
G1 X117.967 Y108.452 E2.8356
G92 E0.0000
G1 E-5 F2400
; layer 26, Z = 5.200
; feature inner perimeter
; tool H0.200 W0.480
G1 Z5.400 F1200
G1 X109.200 Y108.800 F6000
G1 Z5.200 F1200
G1 E0.0000 F2400
G92 E0.0000
G1 X109.200 Y91.200 E0.6322 F2700
G1 X112.629 Y91.200 E0.7554
G1 X112.630 Y93.093 E0.8234
G1 X116.695 Y93.093 E0.9694
G1 X116.694 Y91.200 E1.0374
G1 X118.470 Y91.200 E1.1012
G1 X118.469 Y93.093 E1.1691
G1 X122.618 Y93.093 E1.3182
G1 X122.619 Y91.200 E1.3861
G1 X126.800 Y91.200 E1.5363
G1 X126.800 Y97.614 E1.7667
G1 X124.857 Y97.613 E1.8365
G1 X124.855 Y101.694 E1.9831
G1 X126.800 Y101.695 E2.0530
G1 X126.800 Y108.800 E2.3082
G1 X109.200 Y108.800 E2.9404
G1 X108.720 Y109.280 F6000
G92 E0.0000
G1 X108.720 Y90.720 E0.6667 F2700
G1 X113.108 Y90.720 E0.8243
G1 X113.109 Y92.613 E0.8923
G1 X116.215 Y92.613 E1.0039
G1 X116.214 Y90.720 E1.0718
G1 X118.950 Y90.720 E1.1701
G1 X118.949 Y92.613 E1.2381
G1 X122.138 Y92.613 E1.3527
G1 X122.139 Y90.720 E1.4206
G1 X127.280 Y90.720 E1.6053
G1 X127.280 Y98.095 E1.8702
G1 X125.337 Y98.094 E1.9400
G1 X125.336 Y101.214 E2.0521
G1 X127.280 Y101.215 E2.1219
G1 X127.280 Y109.280 E2.4116
G1 X108.720 Y109.280 E3.0783
; feature outer perimeter
G1 X108.240 Y109.760 F6000
G92 E0.0000
G1 X108.240 Y90.240 E0.7012 F1800
G1 X113.588 Y90.240 E0.8933
G1 X113.589 Y92.133 E0.9613
G1 X115.735 Y92.133 E1.0383
G1 X115.734 Y90.240 E1.1063
G1 X119.431 Y90.240 E1.2391
G1 X119.430 Y92.133 E1.3071
G1 X121.658 Y92.133 E1.3872
G1 X121.659 Y90.240 E1.4551
G1 X127.760 Y90.240 E1.6743
G1 X127.760 Y98.575 E1.9737
G1 X125.817 Y98.574 E2.0435
G1 X125.816 Y100.735 E2.1211
G1 X127.760 Y100.736 E2.1909
G1 X127.760 Y109.760 E2.5151
G1 X108.240 Y109.760 E3.2163
; feature solid layer
G1 X118.174 Y92.359 F6000
G92 E0.0000
G1 X118.182 Y92.351 E0.0004 F2880
G1 X118.182 Y91.672 E0.0248
G1 X118.175 Y91.680 E0.0251
; feature infill
; tool H0.200 W0.600
G1 X109.548 Y99.967 F6000
G92 E0.0000
G1 X116.074 Y93.441 E0.4144 F3600
G1 X117.043 Y93.441 E0.4579
G1 X117.043 Y92.472 E0.5014
G1 X117.634 Y91.880 E0.5390
G1 X117.634 Y93.441 E0.6091
G1 X118.721 Y93.441 E0.6579
G1 X122.966 Y93.441 E0.8485
G1 X122.967 Y91.548 E0.9335
G1 X126.452 Y91.548 E1.0900
G1 X109.548 Y108.452 E2.1634
G1 X118.033 Y108.452 E2.5444
G1 X124.507 Y101.978 E2.9555
G92 E0.0000
G1 E-5 F2400
; layer 27, Z = 5.400
; feature inner perimeter
; tool H0.200 W0.480
G1 Z5.600 F1200
G1 X124.856 Y101.692 F6000
G1 Z5.400 F1200
G1 E0.0000 F2400
G92 E0.0000
G1 X126.800 Y101.693 E0.0698 F2700
G1 X126.800 Y108.800 E0.3251
G1 X109.200 Y108.800 E0.9573
G1 X109.200 Y91.200 E1.5896
G1 X112.740 Y91.200 E1.7167
G1 X112.741 Y93.093 E1.7847
G1 X116.814 Y93.093 E1.9310
G1 X116.813 Y91.200 E1.9990
G1 X118.348 Y91.200 E2.0541
G1 X118.347 Y93.093 E2.1221
G1 X122.491 Y93.093 E2.2710
G1 X122.492 Y91.200 E2.3390
G1 X126.800 Y91.200 E2.4937
G1 X126.800 Y97.612 E2.7240
G1 X124.858 Y97.611 E2.7938
G1 X124.856 Y101.692 E2.9404
G1 X125.336 Y101.212 F6000
G92 E0.0000
G1 X127.280 Y101.213 E0.0698 F2700
G1 X127.280 Y109.280 E0.3596
G1 X108.720 Y109.280 E1.0263
G1 X108.720 Y90.720 E1.6930
G1 X113.219 Y90.720 E1.8546
G1 X113.220 Y92.613 E1.9226
G1 X116.333 Y92.613 E2.0344
G1 X116.332 Y90.720 E2.1024
G1 X118.829 Y90.720 E2.1921
G1 X118.828 Y92.613 E2.2601
G1 X122.012 Y92.613 E2.3744
G1 X122.013 Y90.720 E2.4424
G1 X127.280 Y90.720 E2.6316
G1 X127.280 Y98.092 E2.8965
G1 X125.337 Y98.092 E2.9662
G1 X125.336 Y101.212 E3.0783
; feature outer perimeter
G1 X125.816 Y100.733 F6000
G92 E0.0000
G1 X127.760 Y100.733 E0.0698 F1800
G1 X127.760 Y109.760 E0.3941
G1 X108.240 Y109.760 E1.0952
G1 X108.240 Y90.240 E1.7964
G1 X113.699 Y90.240 E1.9925
G1 X113.700 Y92.133 E2.0605
G1 X115.853 Y92.133 E2.1379
G1 X115.852 Y90.240 E2.2058
G1 X119.309 Y90.240 E2.3300
G1 X119.308 Y92.133 E2.3980
G1 X121.532 Y92.133 E2.4779
G1 X121.533 Y90.240 E2.5459
G1 X127.760 Y90.240 E2.7696
G1 X127.760 Y98.573 E3.0689
G1 X125.817 Y98.572 E3.1387
G1 X125.816 Y100.733 E3.2163
; feature solid layer
G1 X118.052 Y92.585 F6000
G92 E0.0000
G1 X118.060 Y92.592 E0.0004 F2880
G1 X118.060 Y91.914 E0.0247
G1 X118.053 Y91.907 E0.0251
; feature infill
; tool H0.200 W0.600
G1 X119.926 Y93.441 F6000
G92 E0.0000
G1 X124.509 Y98.024 E0.2910 F3600
G1 X124.508 Y102.040 E0.4714
G1 X126.452 Y102.041 E0.5587
G1 X126.452 Y108.452 E0.8465
G1 X109.548 Y91.548 E1.9199
G1 X109.548 Y100.033 E2.3009
G1 X117.967 Y108.452 E2.8355
G92 E0.0000
G1 E-5 F2400
; layer 28, Z = 5.600
; feature inner perimeter
; tool H0.200 W0.480
G1 Z5.800 F1200
G1 X109.200 Y108.800 F6000
G1 Z5.600 F1200
G1 E0.0000 F2400
G92 E0.0000
G1 X109.200 Y91.200 E0.6322 F2700
G1 X112.851 Y91.200 E0.7633
G1 X112.852 Y93.093 E0.8313
G1 X116.932 Y93.093 E0.9779
G1 X116.931 Y91.200 E1.0459
G1 X118.226 Y91.200 E1.0924
G1 X118.225 Y93.093 E1.1604
G1 X122.365 Y93.093 E1.3091
G1 X122.366 Y91.200 E1.3771
G1 X126.800 Y91.200 E1.5364
G1 X126.800 Y97.610 E1.7666
G1 X124.858 Y97.609 E1.8364
G1 X124.856 Y101.690 E1.9830
G1 X126.800 Y101.691 E2.0528
G1 X126.800 Y108.800 E2.3082
G1 X109.200 Y108.800 E2.9404
G1 X108.720 Y109.280 F6000
G92 E0.0000
G1 X108.720 Y90.720 E0.6667 F2700
G1 X113.330 Y90.720 E0.8323
G1 X113.331 Y92.613 E0.9003
G1 X116.452 Y92.613 E1.0124
G1 X116.451 Y90.720 E1.0804
G1 X118.707 Y90.720 E1.1614
G1 X118.706 Y92.613 E1.2294
G1 X121.885 Y92.613 E1.3436
G1 X121.886 Y90.720 E1.4116
G1 X127.280 Y90.720 E1.6054
G1 X127.280 Y98.090 E1.8701
G1 X125.338 Y98.089 E1.9399
G1 X125.336 Y101.210 E2.0520
G1 X127.280 Y101.211 E2.1218
G1 X127.280 Y109.280 E2.4116
G1 X108.720 Y109.280 E3.0783
; feature outer perimeter
G1 X108.240 Y109.760 F6000
G92 E0.0000
G1 X108.240 Y90.240 E0.7012 F1800
G1 X113.810 Y90.240 E0.9013
G1 X113.811 Y92.133 E0.9693
G1 X115.972 Y92.133 E1.0469
G1 X115.971 Y90.240 E1.1149
G1 X119.187 Y90.240 E1.2304
G1 X119.186 Y92.133 E1.2984
G1 X121.405 Y92.133 E1.3781
G1 X121.406 Y90.240 E1.4461
G1 X127.760 Y90.240 E1.6743
G1 X127.760 Y98.570 E1.9736
G1 X125.817 Y98.570 E2.0433
G1 X125.816 Y100.730 E2.1210
G1 X127.760 Y100.731 E2.1908
G1 X127.760 Y109.760 E2.5151
G1 X108.240 Y109.760 E3.2163
; feature solid layer
G1 X117.930 Y92.603 F6000
G92 E0.0000
G1 X117.938 Y92.595 E0.0004 F2880
G1 X117.938 Y91.916 E0.0248
G1 X117.931 Y91.923 E0.0251
; feature infill
; tool H0.200 W0.600
G1 X109.548 Y99.967 F6000
G92 E0.0000
G1 X116.074 Y93.441 E0.4144 F3600
G1 X117.280 Y93.441 E0.4686
G1 X117.280 Y92.235 E0.5227
G1 X117.391 Y92.124 E0.5297
G1 X117.390 Y93.442 E0.5889
G1 X118.477 Y93.441 E0.6378
G1 X122.713 Y93.441 E0.8279
G1 X122.714 Y91.548 E0.9129
G1 X126.452 Y91.548 E1.0808
G1 X109.548 Y108.452 E2.1542
G1 X118.033 Y108.452 E2.5352
G1 X124.508 Y101.977 E2.9463
G92 E0.0000
G1 E-5 F2400
; layer 29, Z = 5.800
; feature inner perimeter
; tool H0.200 W0.480
G1 Z6.000 F1200
G1 X124.856 Y101.688 F6000
G1 Z5.800 F1200
G1 E0.0000 F2400
G92 E0.0000
G1 X126.800 Y101.689 E0.0698 F2700
G1 X126.800 Y108.800 E0.3253
G1 X109.200 Y108.800 E0.9575
G1 X109.200 Y91.200 E1.5897
G1 X112.962 Y91.200 E1.7248
G1 X112.963 Y93.093 E1.7928
G1 X117.051 Y93.093 E1.9397
G1 X117.050 Y91.200 E2.0077
G1 X118.105 Y91.200 E2.0455
G1 X118.104 Y93.093 E2.1135
G1 X122.238 Y93.093 E2.2621
G1 X122.239 Y91.200 E2.3301
G1 X126.800 Y91.200 E2.4939
G1 X126.800 Y97.608 E2.7241
G1 X124.858 Y97.607 E2.7938
G1 X124.856 Y101.688 E2.9404
G1 X125.337 Y101.208 F6000
G92 E0.0000
G1 X127.280 Y101.209 E0.0698 F2700
G1 X127.280 Y109.280 E0.3597
G1 X108.720 Y109.280 E1.0264
G1 X108.720 Y90.720 E1.6931
G1 X113.442 Y90.720 E1.8627
G1 X113.442 Y92.613 E1.9307
G1 X116.570 Y92.613 E2.0431
G1 X116.569 Y90.720 E2.1111
G1 X118.585 Y90.720 E2.1835
G1 X118.584 Y92.613 E2.2515
G1 X121.759 Y92.613 E2.3655
G1 X121.760 Y90.720 E2.4335
G1 X127.280 Y90.720 E2.6318
G1 X127.280 Y98.088 E2.8965
G1 X125.338 Y98.087 E2.9662
G1 X125.337 Y101.208 E3.0783
; feature outer perimeter
G1 X125.817 Y100.728 F6000
G92 E0.0000
G1 X127.760 Y100.729 E0.0698 F1800
G1 X127.760 Y109.760 E0.3942
G1 X108.240 Y109.760 E1.0954
G1 X108.240 Y90.240 E1.7966
G1 X113.921 Y90.240 E2.0006
G1 X113.922 Y92.133 E2.0686
G1 X116.090 Y92.133 E2.1465
G1 X116.089 Y90.240 E2.2145
G1 X119.065 Y90.240 E2.3214
G1 X119.064 Y92.133 E2.3894
G1 X121.279 Y92.133 E2.4690
G1 X121.280 Y90.240 E2.5370
G1 X127.760 Y90.240 E2.7697
G1 X127.760 Y98.568 E3.0689
G1 X125.818 Y98.567 E3.1387
G1 X125.817 Y100.728 E3.2163
; feature solid layer
G1 X117.690 Y92.902 F6000
G92 E0.0000
G1 X117.338 Y92.550 E0.0179 F2880
G1 X117.338 Y91.871 E0.0423
G1 X117.816 Y92.349 E0.0665
G1 X117.816 Y91.670 E0.0909
G1 X117.634 Y91.488 E0.1002
; feature infill
; tool H0.200 W0.600
G1 X119.926 Y93.441 F6000
G92 E0.0000
G1 X124.510 Y98.025 E0.2911 F3600
G1 X124.508 Y102.036 E0.4712
G1 X126.452 Y102.036 E0.5584
G1 X126.452 Y108.452 E0.8465
G1 X109.548 Y91.548 E1.9199
G1 X109.548 Y100.033 E2.3009
G1 X117.967 Y108.452 E2.8355
G92 E0.0000
G1 E-5 F2400
; layer 30, Z = 6.000
; feature inner perimeter
; tool H0.200 W0.480
G1 Z6.200 F1200
G1 X109.200 Y108.800 F6000
G1 Z6.000 F1200
G1 E0.0000 F2400
G92 E0.0000
G1 X109.200 Y91.200 E0.6322 F2700
G1 X113.073 Y91.200 E0.7713
G1 X113.074 Y93.093 E0.8393
G1 X117.169 Y93.093 E0.9864
G1 X117.168 Y91.200 E1.0544
G1 X117.983 Y91.200 E1.0837
G1 X117.982 Y93.093 E1.1517
G1 X122.112 Y93.093 E1.3001
G1 X122.113 Y91.200 E1.3681
G1 X126.800 Y91.200 E1.5364
G1 X126.800 Y97.606 E1.7665
G1 X124.858 Y97.605 E1.8363
G1 X124.857 Y101.686 E1.9829
G1 X126.800 Y101.686 E2.0527
G1 X126.800 Y108.800 E2.3082
G1 X109.200 Y108.800 E2.9404
G1 X108.720 Y109.280 F6000
G92 E0.0000
G1 X108.720 Y90.720 E0.6667 F2700
G1 X113.553 Y90.720 E0.8403
G1 X113.553 Y92.613 E0.9083
G1 X116.689 Y92.613 E1.0209
G1 X116.688 Y90.720 E1.0889
G1 X118.463 Y90.720 E1.1527
G1 X118.462 Y92.613 E1.2207
G1 X121.632 Y92.613 E1.3346
G1 X121.633 Y90.720 E1.4026
G1 X127.280 Y90.720 E1.6054
G1 X127.280 Y98.086 E1.8700
G1 X125.338 Y98.085 E1.9397
G1 X125.337 Y101.206 E2.0518
G1 X127.280 Y101.207 E2.1216
G1 X127.280 Y109.280 E2.4116
G1 X108.720 Y109.280 E3.0783
; feature outer perimeter
G1 X108.240 Y109.760 F6000
G92 E0.0000
G1 X108.240 Y90.240 E0.7012 F1800
G1 X114.032 Y90.240 E0.9092
G1 X114.033 Y92.133 E0.9772
G1 X116.209 Y92.133 E1.0554
G1 X116.208 Y90.240 E1.1234
G1 X118.943 Y90.240 E1.2217
G1 X118.942 Y92.133 E1.2897
G1 X121.153 Y92.133 E1.3691
G1 X121.154 Y90.240 E1.4371
G1 X127.760 Y90.240 E1.6744
G1 X127.760 Y98.566 E1.9735
G1 X125.818 Y98.565 E2.0432
G1 X125.817 Y100.726 E2.1208
G1 X127.760 Y100.727 E2.1906
G1 X127.760 Y109.760 E2.5151
G1 X108.240 Y109.760 E3.2163
; feature solid layer
G1 X117.694 Y92.839 F6000
G92 E0.0000
G1 X117.631 Y92.902 E0.0032 F2880
G1 X117.457 Y92.902 E0.0094
G1 X117.457 Y92.397 E0.0276
G1 X117.694 Y92.160 E0.0396
G1 X117.695 Y91.488 E0.0638
G1 X117.687 Y91.488 E0.0640
G1 X117.456 Y91.719 E0.0758
; feature infill
; tool H0.200 W0.600
G1 X109.548 Y99.967 F6000
G92 E0.0000
G1 X116.074 Y93.441 E0.4144 F3600
G1 X116.917 Y93.442 E0.4523
G1 X118.234 Y93.441 E0.5114
G1 X122.460 Y93.441 E0.7012
G1 X122.461 Y91.548 E0.7862
G1 X126.452 Y91.548 E0.9654
G1 X109.548 Y108.452 E2.0388
G1 X118.033 Y108.452 E2.4198
G1 X124.508 Y101.977 E2.8310
G92 E0.0000
G1 E-5 F2400
; layer 31, Z = 6.200
; feature inner perimeter
; tool H0.200 W0.480
G1 Z6.400 F1200
G1 X124.857 Y101.683 F6000
G1 Z6.200 F1200
G1 E0.0000 F2400
G92 E0.0000
G1 X126.800 Y101.684 E0.0698 F2700
G1 X126.800 Y108.800 E0.3254
G1 X109.200 Y108.800 E0.9576
G1 X109.200 Y91.200 E1.5898
G1 X113.184 Y91.200 E1.7329
G1 X113.185 Y93.093 E1.8009
G1 X117.288 Y93.093 E1.9483
G1 X117.287 Y91.200 E2.0163
G1 X117.861 Y91.200 E2.0370
G1 X117.860 Y93.093 E2.1050
G1 X121.986 Y93.093 E2.2532
G1 X121.987 Y91.200 E2.3212
G1 X126.800 Y91.200 E2.4941
G1 X126.800 Y97.603 E2.7241
G1 X124.859 Y97.603 E2.7938
G1 X124.857 Y101.683 E2.9404
G1 X125.337 Y101.204 F6000
G92 E0.0000
G1 X127.280 Y101.204 E0.0698 F2700
G1 X127.280 Y109.280 E0.3599
G1 X108.720 Y109.280 E1.0266
G1 X108.720 Y90.720 E1.6933
G1 X113.664 Y90.720 E1.8708
G1 X113.664 Y92.613 E1.9388
G1 X116.807 Y92.613 E2.0517
G1 X116.806 Y90.720 E2.1197
G1 X118.341 Y90.720 E2.1749
G1 X118.340 Y92.613 E2.2429
G1 X121.506 Y92.613 E2.3566
G1 X121.507 Y90.720 E2.4246
G1 X127.280 Y90.720 E2.6320
G1 X127.280 Y98.084 E2.8965
G1 X125.339 Y98.083 E2.9662
G1 X125.337 Y101.204 E3.0783
; feature outer perimeter
G1 X125.817 Y100.724 F6000
G92 E0.0000
G1 X127.760 Y100.725 E0.0698 F1800
G1 X127.760 Y109.760 E0.3943
G1 X108.240 Y109.760 E1.0955
G1 X108.240 Y90.240 E1.7967
G1 X114.143 Y90.240 E2.0087
G1 X114.144 Y92.133 E2.0768
G1 X116.327 Y92.133 E2.1552
G1 X116.326 Y90.240 E2.2232
G1 X118.821 Y90.240 E2.3128
G1 X118.820 Y92.133 E2.3808
G1 X121.026 Y92.133 E2.4600
G1 X121.027 Y90.240 E2.5281
G1 X127.760 Y90.240 E2.7699
G1 X127.760 Y98.564 E3.0689
G1 X125.818 Y98.563 E3.1387
G1 X125.817 Y100.724 E3.2163
; feature infill
; tool H0.200 W0.600
G1 X119.927 Y93.441 F6000
G92 E0.0000
G1 X124.511 Y98.025 E0.2911 F3600
G1 X124.509 Y102.031 E0.4710
G1 X126.452 Y102.032 E0.5582
G1 X126.452 Y108.452 E0.8465
G1 X109.548 Y91.548 E1.9199
G1 X109.548 Y100.033 E2.3009
G1 X117.967 Y108.452 E2.8355
G92 E0.0000
G1 E-5 F2400
; layer 32, Z = 6.400
; feature inner perimeter
; tool H0.200 W0.480
G1 Z6.600 F1200
G1 X109.200 Y108.800 F6000
G1 Z6.400 F1200
G1 E0.0000 F2400
G92 E0.0000
G1 X109.200 Y91.200 E0.6322 F2700
G1 X113.295 Y91.200 E0.7793
G1 X113.296 Y93.094 E0.8473
G1 X121.859 Y93.094 E1.1549
G1 X121.860 Y91.200 E1.2229
G1 X126.800 Y91.200 E1.4004
G1 X126.800 Y97.601 E1.6303
G1 X124.859 Y97.600 E1.7000
G1 X124.857 Y101.681 E1.8466
G1 X126.800 Y101.682 E1.9164
G1 X126.800 Y108.800 E2.1721
G1 X109.200 Y108.800 E2.8043
G1 X108.720 Y109.280 F6000
G92 E0.0000
G1 X108.720 Y90.720 E0.6667 F2700
G1 X113.775 Y90.720 E0.8483
G1 X113.775 Y92.614 E0.9163
G1 X116.926 Y92.614 E1.0294
G1 X116.925 Y90.720 E1.0975
G1 X118.219 Y90.720 E1.1440
G1 X118.218 Y92.614 E1.2120
G1 X121.379 Y92.614 E1.3255
G1 X121.380 Y90.720 E1.3935
G1 X127.280 Y90.720 E1.6055
G1 X127.280 Y98.082 E1.8699
G1 X125.339 Y98.081 E1.9396
G1 X125.337 Y101.201 E2.0517
G1 X127.280 Y101.202 E2.1215
G1 X127.280 Y109.280 E2.4117
G1 X108.720 Y109.280 E3.0783
; feature outer perimeter
G1 X108.240 Y109.760 F6000
G92 E0.0000
G1 X108.240 Y90.240 E0.7012 F1800
G1 X114.254 Y90.240 E0.9172
G1 X114.255 Y92.134 E0.9852
G1 X116.446 Y92.134 E1.0639
G1 X116.445 Y90.240 E1.1319
G1 X118.700 Y90.240 E1.2129
G1 X118.699 Y92.134 E1.2809
G1 X120.900 Y92.134 E1.3600
G1 X120.901 Y90.240 E1.4280
G1 X127.760 Y90.240 E1.6744
G1 X127.760 Y98.562 E1.9733
G1 X125.819 Y98.561 E2.0431
G1 X125.818 Y100.722 E2.1207
G1 X127.760 Y100.723 E2.1905
G1 X127.760 Y109.760 E2.5151
G1 X108.240 Y109.760 E3.2163
; feature gap fill
G1 X117.732 Y92.801 F6000
G92 E0.0000
G1 X117.930 Y92.603 E0.0101 F3600
G1 X117.931 Y91.923 E0.0345
G1 X117.214 Y92.640 E0.0709
G1 X117.213 Y91.962 E0.0953
G1 X117.931 Y91.244 E0.1317
G1 X117.931 Y91.008 E0.1402
G1 X117.489 Y91.008 E0.1561
G1 X117.213 Y91.283 E0.1701
; feature infill
; tool H0.200 W0.600
G1 X109.548 Y99.967 F6000
G92 E0.0000
G1 X116.073 Y93.442 E0.4144 F3600
G1 X122.207 Y93.442 E0.6898
G1 X122.208 Y91.548 E0.7748
G1 X126.452 Y91.548 E0.9653
G1 X109.548 Y108.452 E2.0387
G1 X118.033 Y108.452 E2.4197
G1 X124.509 Y101.976 E2.8310
G92 E0.0000
G1 E-5 F2400
; layer 33, Z = 6.600
; feature inner perimeter
; tool H0.200 W0.480
G1 Z6.800 F1200
G1 X124.858 Y101.679 F6000
G1 Z6.600 F1200
G1 E0.0000 F2400
G92 E0.0000
G1 X126.800 Y101.680 E0.0698 F2700
G1 X126.800 Y108.800 E0.3255
G1 X109.200 Y108.800 E0.9577
G1 X109.200 Y91.200 E1.5900
G1 X113.406 Y91.200 E1.7410
G1 X113.407 Y93.094 E1.8091
G1 X117.525 Y93.094 E1.9570
G1 X119.544 Y93.094 E2.0295
G1 X121.733 Y93.094 E2.1081
G1 X121.734 Y91.200 E2.1762
G1 X126.800 Y91.200 E2.3581
G1 X126.800 Y97.599 E2.5880
G1 X124.859 Y97.598 E2.6577
G1 X124.858 Y101.679 E2.8043
G1 X125.338 Y101.199 F6000
G92 E0.0000
G1 X127.280 Y101.200 E0.0698 F2700
G1 X127.280 Y109.280 E0.3600
G1 X108.720 Y109.280 E1.0267
G1 X108.720 Y90.720 E1.6934
G1 X113.886 Y90.720 E1.8789
G1 X113.886 Y92.614 E1.9470
G1 X117.044 Y92.614 E2.0604
G1 X117.043 Y90.720 E2.1284
G1 X118.098 Y90.720 E2.1663
G1 X118.097 Y92.614 E2.2343
G1 X119.544 Y92.614 E2.2863
G1 X121.253 Y92.614 E2.3477
G1 X121.254 Y90.720 E2.4157
G1 X127.280 Y90.720 E2.6322
G1 X127.280 Y98.079 E2.8965
G1 X125.339 Y98.079 E2.9662
G1 X125.338 Y101.199 E3.0783
; feature outer perimeter
G1 X125.818 Y100.720 F6000
G92 E0.0000
G1 X127.760 Y100.720 E0.0698 F1800
G1 X127.760 Y109.760 E0.3945
G1 X108.240 Y109.760 E1.0956
G1 X108.240 Y90.240 E1.7968
G1 X114.365 Y90.240 E2.0169
G1 X114.366 Y92.134 E2.0849
G1 X116.564 Y92.134 E2.1638
G1 X116.563 Y90.240 E2.2318
G1 X118.578 Y90.240 E2.3042
G1 X118.577 Y92.134 E2.3722
G1 X119.544 Y92.134 E2.4070
G1 X120.773 Y92.134 E2.4511
G1 X120.774 Y90.240 E2.5192
G1 X127.760 Y90.240 E2.7701
G1 X127.760 Y98.560 E3.0689
G1 X125.819 Y98.559 E3.1387
G1 X125.818 Y100.720 E3.2163
; feature gap fill
G1 X117.589 Y92.801 F6000
G92 E0.0000
G1 X117.332 Y92.544 E0.0130 F3600
G1 X117.332 Y91.865 E0.0374
G1 X117.809 Y92.342 E0.0617
G1 X117.809 Y91.663 E0.0860
G1 X117.332 Y91.186 E0.1103
; feature infill
; tool H0.200 W0.600
G1 X119.927 Y93.442 F6000
G92 E0.0000
G1 X124.511 Y98.026 E0.2911 F3600
G1 X124.509 Y102.027 E0.4707
G1 X126.452 Y102.028 E0.5580
G1 X126.452 Y108.452 E0.8464
G1 X109.548 Y91.548 E1.9198
G1 X109.548 Y100.033 E2.3008
G1 X117.967 Y108.452 E2.8354
G92 E0.0000
G1 E-5 F2400
; layer 34, Z = 6.800
; feature inner perimeter
; tool H0.200 W0.480
G1 Z7.000 F1200
G1 X109.200 Y108.800 F6000
G1 Z6.800 F1200
G1 E0.0000 F2400
G92 E0.0000
G1 X109.200 Y91.200 E0.6322 F2700
G1 X113.517 Y91.200 E0.7873
G1 X113.518 Y93.094 E0.8553
G1 X121.606 Y93.094 E1.1458
G1 X121.607 Y91.200 E1.2139
G1 X126.800 Y91.200 E1.4004
G1 X126.800 Y97.597 E1.6302
G1 X124.860 Y97.596 E1.6999
G1 X124.858 Y101.677 E1.8465
G1 X126.800 Y101.678 E1.9162
G1 X126.800 Y108.800 E2.1721
G1 X109.200 Y108.800 E2.8043
G1 X108.720 Y109.280 F6000
G92 E0.0000
G1 X108.720 Y90.720 E0.6667 F2700
G1 X113.997 Y90.720 E0.8562
G1 X113.997 Y92.614 E0.9243
G1 X117.163 Y92.614 E1.0380
G1 X117.162 Y90.720 E1.1060
G1 X117.976 Y90.720 E1.1352
G1 X117.975 Y92.614 E1.2033
G1 X121.126 Y92.614 E1.3165
G1 X121.127 Y90.720 E1.3845
G1 X127.280 Y90.720 E1.6055
G1 X127.280 Y98.077 E1.8698
G1 X125.339 Y98.076 E1.9395
G1 X125.338 Y101.197 E2.0516
G1 X127.280 Y101.198 E2.1213
G1 X127.280 Y109.280 E2.4117
G1 X108.720 Y109.280 E3.0783
; feature outer perimeter
G1 X108.240 Y109.760 F6000
G92 E0.0000
G1 X108.240 Y90.240 E0.7012 F1800
G1 X114.476 Y90.240 E0.9252
G1 X114.477 Y92.134 E0.9932
G1 X116.683 Y92.134 E1.0724
G1 X116.682 Y90.240 E1.1405
G1 X118.456 Y90.240 E1.2042
G1 X118.455 Y92.134 E1.2722
G1 X120.647 Y92.134 E1.3510
G1 X120.648 Y90.240 E1.4190
G1 X127.760 Y90.240 E1.6745
G1 X127.760 Y98.557 E1.9732
G1 X125.819 Y98.557 E2.0430
G1 X125.818 Y100.717 E2.1206
G1 X127.760 Y100.718 E2.1903
G1 X127.760 Y109.760 E2.5151
G1 X108.240 Y109.760 E3.2163
; feature gap fill
G1 X117.687 Y92.167 F6000
G92 E0.0000
G1 X117.451 Y92.403 E0.0120 F3600
G1 X117.450 Y91.725 E0.0364
G1 X117.687 Y91.488 E0.0484
G1 X117.688 Y91.008 E0.0657
G1 X117.489 Y91.008 E0.0728
G1 X117.450 Y91.046 E0.0748
; feature infill
; tool H0.200 W0.600
G1 X116.682 Y91.913 F6000
G1 X116.683 Y92.134
G1 X116.487 Y92.134
G1 X109.548 Y99.967
G92 E0.0000
G1 X116.073 Y93.442 E0.4143 F3600
G1 X121.954 Y93.442 E0.6784
G1 X121.955 Y91.548 E0.7634
G1 X126.452 Y91.548 E0.9654
G1 X109.548 Y108.452 E2.0388
G1 X118.033 Y108.452 E2.4198
G1 X124.510 Y101.976 E2.8310
G92 E0.0000
G1 E-5 F2400
; layer 35, Z = 7.000
; feature inner perimeter
; tool H0.200 W0.480
G1 Z7.200 F1200
G1 X124.858 Y101.675 F6000
G1 Z7.000 F1200
G1 E0.0000 F2400
G92 E0.0000
G1 X126.800 Y101.676 E0.0698 F2700
G1 X126.800 Y108.800 E0.3257
G1 X109.200 Y108.800 E0.9579
G1 X109.200 Y91.200 E1.5901
G1 X113.628 Y91.200 E1.7491
G1 X113.629 Y93.094 E1.8172
G1 X121.480 Y93.094 E2.0992
G1 X121.481 Y91.200 E2.1672
G1 X126.800 Y91.200 E2.3583
G1 X126.800 Y97.595 E2.5880
G1 X124.860 Y97.594 E2.6577
G1 X124.858 Y101.675 E2.8043
G1 X125.338 Y101.195 F6000
G92 E0.0000
G1 X127.280 Y101.196 E0.0697 F2700
G1 X127.280 Y109.280 E0.3601
G1 X108.720 Y109.280 E1.0268
G1 X108.720 Y90.720 E1.6935
G1 X114.108 Y90.720 E1.8871
G1 X114.109 Y92.614 E1.9551
G1 X117.281 Y92.614 E2.0691
G1 X117.280 Y90.720 E2.1371
G1 X117.854 Y90.720 E2.1577
G1 X117.853 Y92.614 E2.2257
G1 X121.000 Y92.614 E2.3388
G1 X121.001 Y90.720 E2.4068
G1 X127.280 Y90.720 E2.6324
G1 X127.280 Y98.075 E2.8966
G1 X125.340 Y98.074 E2.9662
G1 X125.338 Y101.195 E3.0783
; feature outer perimeter
G1 X125.819 Y100.715 F6000
G92 E0.0000
G1 X127.760 Y100.716 E0.0697 F1800
G1 X127.760 Y109.760 E0.3946
G1 X108.240 Y109.760 E1.0958
G1 X108.240 Y90.240 E1.7970
G1 X114.587 Y90.240 E2.0250
G1 X114.588 Y92.134 E2.0930
G1 X116.801 Y92.134 E2.1725
G1 X116.800 Y90.240 E2.2405
G1 X118.334 Y90.240 E2.2956
G1 X118.333 Y92.134 E2.3637
G1 X120.520 Y92.134 E2.4422
G1 X120.521 Y90.240 E2.5103
G1 X127.760 Y90.240 E2.7703
G1 X127.760 Y98.555 E3.0690
G1 X125.820 Y98.554 E3.1387
G1 X125.819 Y100.715 E3.2163
; feature infill
; tool H0.200 W0.600
G1 X119.927 Y93.442 F6000
G92 E0.0000
G1 X124.512 Y98.026 E0.2911 F3600
G1 X124.510 Y102.023 E0.4705
G1 X126.452 Y102.023 E0.5577
G1 X126.452 Y108.452 E0.8464
G1 X109.548 Y91.548 E1.9198
G1 X109.548 Y100.033 E2.3008
G1 X117.967 Y108.452 E2.8354
G92 E0.0000
G1 E-5 F2400
; layer 36, Z = 7.200
; feature inner perimeter
; tool H0.200 W0.480
G1 Z7.400 F1200
G1 X109.200 Y108.800 F6000
G1 Z7.200 F1200
G1 E0.0000 F2400
G92 E0.0000
G1 X109.200 Y91.200 E0.6322 F2700
G1 X113.739 Y91.200 E0.7952
G1 X113.740 Y93.094 E0.8633
G1 X117.880 Y93.094 E1.0120
G1 X119.333 Y93.094 E1.0642
G1 X121.353 Y93.094 E1.1368
G1 X121.354 Y91.200 E1.2048
G1 X126.800 Y91.200 E1.4004
G1 X126.800 Y97.593 E1.6301
G1 X124.860 Y97.592 E1.6997
G1 X124.858 Y101.673 E1.8463
G1 X126.800 Y101.673 E1.9161
G1 X126.800 Y108.800 E2.1721
G1 X109.200 Y108.800 E2.8043
G1 X108.720 Y109.280 F6000
G92 E0.0000
G1 X108.720 Y90.720 E0.6667 F2700
G1 X114.219 Y90.720 E0.8642
G1 X114.220 Y92.614 E0.9323
G1 X117.400 Y92.614 E1.0465
G1 X119.333 Y92.614 E1.1159
G1 X120.874 Y92.614 E1.1713
G1 X120.875 Y90.720 E1.2393
G1 X127.280 Y90.720 E1.4694
G1 X127.280 Y98.073 E1.7335
G1 X125.340 Y98.072 E1.8032
G1 X125.339 Y101.193 E1.9153
G1 X127.280 Y101.194 E1.9850
G1 X127.280 Y109.280 E2.2755
G1 X108.720 Y109.280 E2.9422
; feature outer perimeter
G1 X108.240 Y109.760 F6000
G92 E0.0000
G1 X108.240 Y90.240 E0.7012 F1800
G1 X114.698 Y90.240 E0.9332
G1 X114.699 Y92.134 E1.0012
G1 X116.920 Y92.134 E1.0810
G1 X116.919 Y90.240 E1.1490
G1 X118.212 Y90.240 E1.1955
G1 X118.211 Y92.134 E1.2635
G1 X119.333 Y92.134 E1.3038
G1 X120.394 Y92.134 E1.3419
G1 X120.395 Y90.240 E1.4100
G1 X127.760 Y90.240 E1.6745
G1 X127.760 Y98.553 E1.9731
G1 X125.820 Y98.552 E2.0428
G1 X125.819 Y100.713 E2.1204
G1 X127.760 Y100.714 E2.1902
G1 X127.760 Y109.760 E2.5151
G1 X108.240 Y109.760 E3.2163
; feature gap fill
G1 X117.533 Y92.321 F6000
G92 E0.0000
G1 X117.923 Y91.931 E0.0198 F3600
G1 X117.924 Y91.252 E0.0442
G1 X117.207 Y91.968 E0.0806
G1 X117.207 Y91.289 E0.1050
G1 X117.924 Y90.572 E0.1414
G1 X117.924 Y90.528 E0.1430
G1 X117.290 Y90.528 E0.1658
G1 X117.207 Y90.611 E0.1700
; feature infill
; tool H0.200 W0.600
G1 X116.919 Y90.963 F6000
G1 X116.920 Y92.134
G1 X115.960 Y92.134
G1 X109.548 Y99.967
G92 E0.0000
G1 X116.073 Y93.442 E0.4143 F3600
G1 X117.515 Y93.442 E0.4791
G1 X119.333 Y93.442 E0.5607
G1 X121.701 Y93.442 E0.6670
G1 X121.702 Y91.548 E0.7521
G1 X126.452 Y91.548 E0.9654
G1 X109.548 Y108.452 E2.0388
G1 X118.033 Y108.452 E2.4198
G1 X124.510 Y101.975 E2.8311
G92 E0.0000
G1 E-5 F2400
; layer 37, Z = 7.400
; feature inner perimeter
; tool H0.200 W0.480
G1 Z7.600 F1200
G1 X124.859 Y101.670 F6000
G1 Z7.400 F1200
G1 E0.0000 F2400
G92 E0.0000
G1 X126.800 Y101.671 E0.0697 F2700
G1 X126.800 Y108.800 E0.3258
G1 X109.200 Y108.800 E0.9580
G1 X109.200 Y91.200 E1.5902
G1 X113.850 Y91.200 E1.7572
G1 X113.851 Y93.094 E1.8253
G1 X117.734 Y93.094 E1.9648
G1 X121.227 Y93.094 E2.0902
G1 X121.228 Y91.200 E2.1583
G1 X126.800 Y91.200 E2.3585
G1 X126.800 Y97.590 E2.5880
G1 X124.861 Y97.590 E2.6577
G1 X124.859 Y101.670 E2.8043
G1 X125.339 Y101.191 F6000
G92 E0.0000
G1 X127.280 Y101.191 E0.0697 F2700
G1 X127.280 Y109.280 E0.3603
G1 X108.720 Y109.280 E1.0270
G1 X108.720 Y90.720 E1.6937
G1 X114.330 Y90.720 E1.8952
G1 X114.331 Y92.614 E1.9632
G1 X117.734 Y92.614 E2.0855
G1 X120.747 Y92.614 E2.1937
G1 X120.748 Y90.720 E2.2617
G1 X127.280 Y90.720 E2.4964
G1 X127.280 Y98.071 E2.7604
G1 X125.340 Y98.070 E2.8301
G1 X125.339 Y101.191 E2.9422
; feature outer perimeter
G1 X125.819 Y100.711 F6000
G92 E0.0000
G1 X127.760 Y100.712 E0.0697 F1800
G1 X127.760 Y109.760 E0.3947
G1 X108.240 Y109.760 E1.0959
G1 X108.240 Y90.240 E1.7971
G1 X114.809 Y90.240 E2.0331
G1 X114.810 Y92.134 E2.1011
G1 X117.038 Y92.134 E2.1811
G1 X117.037 Y90.240 E2.2492
G1 X118.090 Y90.240 E2.2870
G1 X118.089 Y92.134 E2.3551
G1 X120.267 Y92.134 E2.4333
G1 X120.268 Y90.240 E2.5013
G1 X127.760 Y90.240 E2.7705
G1 X127.760 Y98.551 E3.0690
G1 X125.820 Y98.550 E3.1387
G1 X125.819 Y100.711 E3.2163
; feature gap fill
G1 X117.789 Y92.322 F6000
G92 E0.0000
G1 X117.326 Y91.859 E0.0235 F3600
G1 X117.326 Y91.180 E0.0479
G1 X117.802 Y91.656 E0.0721
G1 X117.802 Y90.977 E0.0965
G1 X117.353 Y90.528 E0.1193
; feature infill
; tool H0.200 W0.600
G1 X118.090 Y91.362 F6000
G1 X118.089 Y92.134
G1 X118.772 Y92.134
G1 X119.928 Y93.442
G92 E0.0000
G1 X124.512 Y98.027 E0.2911 F3600
G1 X124.511 Y102.018 E0.4703
G1 X126.452 Y102.019 E0.5575
G1 X126.452 Y108.452 E0.8464
G1 X109.548 Y91.548 E1.9198
G1 X109.548 Y100.033 E2.3008
G1 X117.967 Y108.452 E2.8353
G92 E0.0000
G1 E-5 F2400
; layer 38, Z = 7.600
; feature inner perimeter
; tool H0.200 W0.480
G1 Z7.800 F1200
G1 X109.200 Y108.800 F6000
G1 Z7.600 F1200
G1 E0.0000 F2400
G92 E0.0000
G1 X109.200 Y91.200 E0.6322 F2700
G1 X113.961 Y91.200 E0.8032
G1 X113.962 Y93.095 E0.8713
G1 X121.100 Y93.095 E1.1277
G1 X121.101 Y91.200 E1.1958
G1 X126.800 Y91.200 E1.4005
G1 X126.800 Y97.588 E1.6299
G1 X124.861 Y97.587 E1.6996
G1 X124.859 Y101.668 E1.8462
G1 X126.800 Y101.669 E1.9159
G1 X126.800 Y108.800 E2.1720
G1 X109.200 Y108.800 E2.8042
G1 X108.720 Y109.280 F6000
G92 E0.0000
G1 X108.720 Y90.720 E0.6667 F2700
G1 X114.441 Y90.720 E0.8722
G1 X114.442 Y92.615 E0.9402
G1 X120.621 Y92.615 E1.1622
G1 X120.622 Y90.720 E1.2302
G1 X127.280 Y90.720 E1.4694
G1 X127.280 Y98.069 E1.7334
G1 X125.341 Y98.068 E1.8031
G1 X125.339 Y101.189 E1.9152
G1 X127.280 Y101.189 E1.9849
G1 X127.280 Y109.280 E2.2755
G1 X108.720 Y109.280 E2.9422
; feature outer perimeter
G1 X108.240 Y109.760 F6000
G92 E0.0000
G1 X108.240 Y90.240 E0.7012 F1800
G1 X114.920 Y90.240 E0.9411
G1 X114.921 Y92.135 E1.0092
G1 X117.157 Y92.135 E1.0895
G1 X117.156 Y90.240 E1.1575
G1 X117.969 Y90.240 E1.1867
G1 X117.968 Y92.135 E1.2548
G1 X120.141 Y92.135 E1.3329
G1 X120.142 Y90.240 E1.4009
G1 X127.760 Y90.240 E1.6746
G1 X127.760 Y98.549 E1.9730
G1 X125.820 Y98.548 E2.0427
G1 X125.820 Y100.709 E2.1203
G1 X127.760 Y100.710 E2.1900
G1 X127.760 Y109.760 E2.5151
G1 X108.240 Y109.760 E3.2163
; feature gap fill
G1 X117.680 Y92.175 F6000
G92 E0.0000
G1 X117.532 Y92.322 E0.0075 F3600
G1 X117.445 Y92.322 E0.0106
G1 X117.444 Y91.731 E0.0318
G1 X117.680 Y91.495 E0.0438
G1 X117.680 Y90.816 E0.0682
G1 X117.444 Y91.053 E0.0802
; feature infill
; tool H0.200 W0.600
G1 X117.156 Y91.377 F6000
G1 X117.157 Y92.135
G1 X116.486 Y92.135
G1 X109.548 Y99.967
G92 E0.0000
G1 X116.072 Y93.443 E0.4143 F3600
G1 X121.448 Y93.443 E0.6557
G1 X121.449 Y91.548 E0.7407
G1 X126.452 Y91.548 E0.9654
G1 X109.548 Y108.452 E2.0388
G1 X118.033 Y108.452 E2.4198
G1 X124.511 Y101.974 E2.8311
G92 E0.0000
G1 E-5 F2400
; layer 39, Z = 7.800
; feature inner perimeter
; tool H0.200 W0.480
G1 Z8.000 F1200
G1 X124.859 Y101.666 F6000
G1 Z7.800 F1200
G1 E0.0000 F2400
G92 E0.0000
G1 X126.800 Y101.667 E0.0697 F2700
G1 X126.800 Y108.800 E0.3259
G1 X109.200 Y108.800 E0.9581
G1 X109.200 Y91.200 E1.5904
G1 X114.072 Y91.200 E1.7654
G1 X114.073 Y93.095 E1.8334
G1 X120.974 Y93.095 E2.0813
G1 X120.975 Y91.200 E2.1494
G1 X126.800 Y91.200 E2.3586
G1 X126.800 Y97.586 E2.5880
G1 X124.861 Y97.585 E2.6577
G1 X124.859 Y101.666 E2.8042
G1 X125.340 Y101.186 F6000
G92 E0.0000
G1 X127.280 Y101.187 E0.0697 F2700
G1 X127.280 Y109.280 E0.3604
G1 X108.720 Y109.280 E1.0271
G1 X108.720 Y90.720 E1.6938
G1 X114.552 Y90.720 E1.9033
G1 X114.553 Y92.615 E1.9713
G1 X120.494 Y92.615 E2.1848
G1 X120.495 Y90.720 E2.2528
G1 X127.280 Y90.720 E2.4965
G1 X127.280 Y98.066 E2.7604
G1 X125.341 Y98.066 E2.8301
G1 X125.340 Y101.186 E2.9422
; feature outer perimeter
G1 X125.820 Y100.707 F6000
G92 E0.0000
G1 X127.760 Y100.707 E0.0697 F1800
G1 X127.760 Y109.760 E0.3949
G1 X108.240 Y109.760 E1.0960
G1 X108.240 Y90.240 E1.7972
G1 X115.032 Y90.240 E2.0412
G1 X115.032 Y92.135 E2.1092
G1 X117.275 Y92.135 E2.1898
G1 X117.274 Y90.240 E2.2579
G1 X117.847 Y90.240 E2.2784
G1 X117.846 Y92.135 E2.3465
G1 X120.014 Y92.135 E2.4244
G1 X120.015 Y90.240 E2.4924
G1 X127.760 Y90.240 E2.7706
G1 X127.760 Y98.547 E3.0690
G1 X125.821 Y98.546 E3.1387
G1 X125.820 Y100.707 E3.2163
; feature infill
; tool H0.200 W0.600
G1 X119.928 Y93.443 F6000
G92 E0.0000
G1 X124.513 Y98.028 E0.2912 F3600
G1 X124.511 Y102.014 E0.4701
G1 X126.452 Y102.015 E0.5573
G1 X126.452 Y108.452 E0.8463
G1 X109.548 Y91.548 E1.9197
G1 X109.548 Y100.033 E2.3007
G1 X117.967 Y108.452 E2.8353
G92 E0.0000
G1 E-5 F2400
; layer 40, Z = 8.000
; feature inner perimeter
; tool H0.200 W0.480
G1 Z8.200 F1200
G1 X109.200 Y108.800 F6000
G1 Z8.000 F1200
G1 E0.0000 F2400
G92 E0.0000
G1 X109.200 Y91.200 E0.6322 F2700
G1 X114.183 Y91.200 E0.8112
G1 X114.184 Y93.095 E0.8793
G1 X117.610 Y93.095 E1.0023
G1 X120.847 Y93.095 E1.1186
G1 X120.848 Y91.200 E1.1867
G1 X126.800 Y91.200 E1.4005
G1 X126.800 Y97.584 E1.6298
G1 X124.862 Y97.583 E1.6994
G1 X124.860 Y101.664 E1.8460
G1 X126.800 Y101.665 E1.9157
G1 X126.800 Y108.800 E2.1720
G1 X109.200 Y108.800 E2.8042
G1 X108.720 Y109.280 F6000
G92 E0.0000
G1 X108.720 Y90.720 E0.6667 F2700
G1 X114.663 Y90.720 E0.8802
G1 X114.664 Y92.615 E0.9482
G1 X117.610 Y92.615 E1.0540
G1 X120.368 Y92.615 E1.1531
G1 X120.369 Y90.720 E1.2212
G1 X127.280 Y90.720 E1.4694
G1 X127.280 Y98.064 E1.7333
G1 X125.341 Y98.063 E1.8029
G1 X125.340 Y101.184 E1.9150
G1 X127.280 Y101.185 E1.9847
G1 X127.280 Y109.280 E2.2755
G1 X108.720 Y109.280 E2.9422
; feature outer perimeter
G1 X108.240 Y109.760 F6000
G92 E0.0000
G1 X108.240 Y90.240 E0.7012 F1800
G1 X115.143 Y90.240 E0.9491
G1 X115.143 Y92.135 E1.0172
G1 X117.394 Y92.135 E1.0980
G1 X117.393 Y90.240 E1.1661
G1 X117.725 Y90.240 E1.1780
G1 X117.724 Y92.135 E1.2461
G1 X119.888 Y92.135 E1.3238
G1 X119.889 Y90.240 E1.3919
G1 X127.760 Y90.240 E1.6746
G1 X127.760 Y98.544 E1.9729
G1 X125.821 Y98.544 E2.0426
G1 X125.820 Y100.704 E2.1202
G1 X127.760 Y100.705 E2.1899
G1 X127.760 Y109.760 E2.5151
G1 X108.240 Y109.760 E3.2163
; feature infill
; tool H0.200 W0.600
G1 X109.548 Y99.967 F6000
G92 E0.0000
G1 X116.072 Y93.443 E0.4143 F3600
G1 X116.980 Y93.443 E0.4550
G1 X121.195 Y93.443 E0.6443
G1 X121.196 Y91.548 E0.7294
G1 X126.452 Y91.548 E0.9654
G1 X109.548 Y108.452 E2.0388
G1 X118.033 Y108.452 E2.4198
G1 X124.512 Y101.974 E2.8312
G92 E0.0000
G1 E-5 F2400
; layer 41, Z = 8.200
; feature inner perimeter
; tool H0.200 W0.480
G1 Z8.400 F1200
G1 X124.860 Y101.662 F6000
G1 Z8.200 F1200
G1 E0.0000 F2400
G92 E0.0000
G1 X126.800 Y101.663 E0.0697 F2700
G1 X126.800 Y108.800 E0.3261
G1 X109.200 Y108.800 E0.9583
G1 X109.200 Y91.200 E1.5905
G1 X114.294 Y91.200 E1.7735
G1 X114.295 Y93.095 E1.8415
G1 X120.721 Y93.095 E2.0724
G1 X120.722 Y91.200 E2.1404
G1 X126.800 Y91.200 E2.3588
G1 X126.800 Y97.582 E2.5880
G1 X124.862 Y97.581 E2.6576
G1 X124.860 Y101.662 E2.8042
G1 X125.340 Y101.182 F6000
G92 E0.0000
G1 X127.280 Y101.183 E0.0697 F2700
G1 X127.280 Y109.280 E0.3605
G1 X108.720 Y109.280 E1.0272
G1 X108.720 Y90.720 E1.6939
G1 X114.774 Y90.720 E1.9114
G1 X114.775 Y92.615 E1.9794
G1 X120.241 Y92.615 E2.1758
G1 X120.242 Y90.720 E2.2439
G1 X127.280 Y90.720 E2.4967
G1 X127.280 Y98.062 E2.7604
G1 X125.342 Y98.061 E2.8301
G1 X125.340 Y101.182 E2.9422
; feature outer perimeter
G1 X125.820 Y100.702 F6000
G92 E0.0000
G1 X127.760 Y100.703 E0.0697 F1800
G1 X127.760 Y109.760 E0.3950
G1 X108.240 Y109.760 E1.0962
G1 X108.240 Y90.240 E1.7974
G1 X115.254 Y90.240 E2.0493
G1 X115.254 Y92.135 E2.1174
G1 X117.512 Y92.135 E2.1985
G1 X117.511 Y90.240 E2.2665
G1 X117.603 Y90.240 E2.2698
G1 X117.602 Y92.135 E2.3379
G1 X119.762 Y92.135 E2.4155
G1 X119.763 Y90.240 E2.4835
G1 X127.760 Y90.240 E2.7708
G1 X127.760 Y98.542 E3.0690
G1 X125.821 Y98.541 E3.1387
G1 X125.820 Y100.702 E3.2163
; feature infill
; tool H0.200 W0.600
G1 X119.928 Y93.443 F6000
G92 E0.0000
G1 X124.514 Y98.028 E0.2912 F3600
G1 X124.512 Y102.010 E0.4699
G1 X126.452 Y102.010 E0.5570
G1 X126.452 Y108.452 E0.8463
G1 X109.548 Y91.548 E1.9197
G1 X109.548 Y100.033 E2.3007
G1 X117.967 Y108.452 E2.8353
G92 E0.0000
G1 E-5 F2400
; layer 42, Z = 8.400
; feature inner perimeter
; tool H0.200 W0.480
G1 Z8.600 F1200
G1 X109.200 Y108.800 F6000
G1 Z8.400 F1200
G1 E0.0000 F2400
G92 E0.0000
G1 X109.200 Y91.200 E0.6322 F2700
G1 X114.405 Y91.200 E0.8192
G1 X114.406 Y93.095 E0.8873
G1 X117.847 Y93.095 E1.0108
G1 X120.595 Y93.095 E1.1096
G1 X120.596 Y91.200 E1.1776
G1 X126.800 Y91.200 E1.4005
G1 X126.800 Y97.580 E1.6297
G1 X124.862 Y97.579 E1.6993
G1 X124.860 Y101.660 E1.8459
G1 X126.800 Y101.660 E1.9155
G1 X126.800 Y108.800 E2.1720
G1 X109.200 Y108.800 E2.8042
G1 X108.720 Y109.280 F6000
G92 E0.0000
G1 X108.720 Y90.720 E0.6667 F2700
G1 X114.885 Y90.720 E0.8881
G1 X114.886 Y92.615 E0.9562
G1 X117.847 Y92.615 E1.0626
G1 X120.115 Y92.615 E1.1441
G1 X120.116 Y90.720 E1.2121
G1 X127.280 Y90.720 E1.4695
G1 X127.280 Y98.060 E1.7331
G1 X125.342 Y98.059 E1.8027
G1 X125.341 Y101.180 E1.9148
G1 X127.280 Y101.181 E1.9845
G1 X127.280 Y109.280 E2.2754
G1 X108.720 Y109.280 E2.9421
; feature outer perimeter
G1 X108.240 Y109.760 F6000
G92 E0.0000
G1 X108.240 Y90.240 E0.7012 F1800
G1 X115.365 Y90.240 E0.9571
G1 X115.365 Y92.135 E1.0252
G1 X117.630 Y92.135 E1.1065
G1 X119.635 Y92.135 E1.1785
G1 X119.636 Y90.240 E1.2466
G1 X127.760 Y90.240 E1.5384
G1 X127.760 Y98.540 E1.8366
G1 X125.822 Y98.539 E1.9062
G1 X125.821 Y100.700 E1.9838
G1 X127.760 Y100.701 E2.0535
G1 X127.760 Y109.760 E2.3789
G1 X108.240 Y109.760 E3.0801
; feature infill
; tool H0.200 W0.600
G1 X109.548 Y99.967 F6000
G92 E0.0000
G1 X116.072 Y93.443 E0.4142 F3600
G1 X117.212 Y93.443 E0.4655
G1 X120.942 Y93.443 E0.6330
G1 X120.943 Y91.548 E0.7180
G1 X126.452 Y91.548 E0.9654
G1 X109.548 Y108.452 E2.0388
G1 X118.033 Y108.452 E2.4198
G1 X124.512 Y101.973 E2.8312
G92 E0.0000
G1 E-5 F2400
; layer 43, Z = 8.600
; feature inner perimeter
; tool H0.200 W0.480
G1 Z8.800 F1200
G1 X124.861 Y101.657 F6000
G1 Z8.600 F1200
G1 E0.0000 F2400
G92 E0.0000
G1 X126.800 Y101.658 E0.0697 F2700
G1 X126.800 Y108.800 E0.3262
G1 X109.200 Y108.800 E0.9584
G1 X109.200 Y91.200 E1.5906
G1 X114.516 Y91.200 E1.7816
G1 X114.517 Y93.095 E1.8497
G1 X120.468 Y93.095 E2.0634
G1 X120.469 Y91.200 E2.1315
G1 X126.800 Y91.200 E2.3589
G1 X126.800 Y97.578 E2.5880
G1 X124.862 Y97.577 E2.6576
G1 X124.861 Y101.657 E2.8042
G1 X125.341 Y101.178 F6000
G92 E0.0000
G1 X127.280 Y101.178 E0.0697 F2700
G1 X127.280 Y109.280 E0.3607
G1 X108.720 Y109.280 E1.0274
G1 X108.720 Y90.720 E1.6941
G1 X114.996 Y90.720 E1.9195
G1 X114.997 Y92.615 E1.9876
G1 X119.988 Y92.615 E2.1669
G1 X119.989 Y90.720 E2.2350
G1 X127.280 Y90.720 E2.4968
G1 X127.280 Y98.058 E2.7604
G1 X125.342 Y98.057 E2.8300
G1 X125.341 Y101.178 E2.9421
; feature outer perimeter
G1 X125.821 Y100.698 F6000
G92 E0.0000
G1 X127.760 Y100.699 E0.0696 F1800
G1 X127.760 Y109.760 E0.3951
G1 X108.240 Y109.760 E1.0963
G1 X108.240 Y90.240 E1.7975
G1 X115.476 Y90.240 E2.0574
G1 X115.476 Y92.135 E2.1255
G1 X119.509 Y92.135 E2.2703
G1 X119.510 Y90.240 E2.3384
G1 X127.760 Y90.240 E2.6348
G1 X127.760 Y98.538 E2.9328
G1 X125.822 Y98.537 E3.0024
G1 X125.821 Y100.698 E3.0801
; feature infill
; tool H0.200 W0.600
G1 X119.929 Y93.443 F6000
G92 E0.0000
G1 X124.514 Y98.029 E0.2912 F3600
G1 X124.512 Y102.005 E0.4697
G1 X126.452 Y102.006 E0.5568
G1 X126.452 Y108.452 E0.8462
G1 X109.548 Y91.548 E1.9196
G1 X109.548 Y100.033 E2.3006
G1 X117.967 Y108.452 E2.8352
G92 E0.0000
G1 E-5 F2400
; layer 44, Z = 8.800
; feature inner perimeter
; tool H0.200 W0.480
G1 Z9.000 F1200
G1 X109.200 Y108.800 F6000
G1 Z8.800 F1200
G1 E0.0000 F2400
G92 E0.0000
G1 X109.200 Y91.200 E0.6322 F2700
G1 X114.627 Y91.200 E0.8272
G1 X114.628 Y93.096 E0.8952
G1 X120.342 Y93.096 E1.1005
G1 X120.343 Y91.200 E1.1686
G1 X126.800 Y91.200 E1.4005
G1 X126.800 Y97.575 E1.6295
G1 X124.863 Y97.575 E1.6991
G1 X124.861 Y101.655 E1.8457
G1 X126.800 Y101.656 E1.9154
G1 X126.800 Y108.800 E2.1720
G1 X109.200 Y108.800 E2.8042
G1 X108.720 Y109.280 F6000
G92 E0.0000
G1 X108.720 Y90.720 E0.6667 F2700
G1 X115.107 Y90.720 E0.8961
G1 X115.108 Y92.616 E0.9642
G1 X119.862 Y92.616 E1.1350
G1 X119.863 Y90.720 E1.2031
G1 X127.280 Y90.720 E1.4695
G1 X127.280 Y98.056 E1.7330
G1 X125.343 Y98.055 E1.8026
G1 X125.341 Y101.176 E1.9147
G1 X127.280 Y101.176 E1.9843
G1 X127.280 Y109.280 E2.2754
G1 X108.720 Y109.280 E2.9421
; feature outer perimeter
G1 X108.240 Y109.760 F6000
G92 E0.0000
G1 X108.240 Y90.240 E0.7012 F1800
G1 X115.587 Y90.240 E0.9651
G1 X115.587 Y92.136 E1.0332
G1 X119.382 Y92.136 E1.1695
G1 X119.383 Y90.240 E1.2376
G1 X127.760 Y90.240 E1.5385
G1 X127.760 Y98.536 E1.8365
G1 X125.822 Y98.535 E1.9061
G1 X125.821 Y100.696 E1.9837
G1 X127.760 Y100.697 E2.0533
G1 X127.760 Y109.760 E2.3789
G1 X108.240 Y109.760 E3.0801
; feature infill
; tool H0.200 W0.600
G1 X109.548 Y99.967 F6000
G92 E0.0000
G1 X116.071 Y93.444 E0.4142 F3600
G1 X120.689 Y93.444 E0.6216
G1 X120.690 Y91.548 E0.7067
G1 X126.452 Y91.548 E0.9654
G1 X109.548 Y108.452 E2.0388
G1 X118.033 Y108.452 E2.4198
G1 X124.513 Y101.972 E2.8312
G92 E0.0000
G1 E-5 F2400
; layer 45, Z = 9.000
; feature inner perimeter
; tool H0.200 W0.480
G1 Z9.200 F1200
G1 X124.861 Y101.653 F6000
G1 Z9.000 F1200
G1 E0.0000 F2400
G92 E0.0000
G1 X126.800 Y101.654 E0.0696 F2700
G1 X126.800 Y108.800 E0.3263
G1 X109.200 Y108.800 E0.9585
G1 X109.200 Y91.200 E1.5908
G1 X114.738 Y91.200 E1.7897
G1 X114.739 Y93.096 E1.8578
G1 X120.215 Y93.096 E2.0545
G1 X120.216 Y91.200 E2.1226
G1 X126.800 Y91.200 E2.3591
G1 X126.800 Y97.573 E2.5880
G1 X124.863 Y97.572 E2.6576
G1 X124.861 Y101.653 E2.8042
G1 X125.341 Y101.173 F6000
G92 E0.0000
G1 X127.280 Y101.174 E0.0696 F2700
G1 X127.280 Y109.280 E0.3608
G1 X108.720 Y109.280 E1.0275
G1 X108.720 Y90.720 E1.6942
G1 X115.218 Y90.720 E1.9276
G1 X115.219 Y92.616 E1.9957
G1 X119.735 Y92.616 E2.1579
G1 X119.736 Y90.720 E2.2260
G1 X127.280 Y90.720 E2.4970
G1 X127.280 Y98.053 E2.7604
G1 X125.343 Y98.053 E2.8300
G1 X125.341 Y101.173 E2.9421
; feature outer perimeter
G1 X125.822 Y100.694 F6000
G92 E0.0000
G1 X127.760 Y100.694 E0.0696 F1800
G1 X127.760 Y109.760 E0.3953
G1 X108.240 Y109.760 E1.0964
G1 X108.240 Y90.240 E1.7976
G1 X115.698 Y90.240 E2.0655
G1 X115.699 Y92.136 E2.1336
G1 X119.256 Y92.136 E2.2614
G1 X119.257 Y90.240 E2.3295
G1 X127.760 Y90.240 E2.6349
G1 X127.760 Y98.534 E2.9328
G1 X125.823 Y98.533 E3.0024
G1 X125.822 Y100.694 E3.0800
; feature infill
; tool H0.200 W0.600
G1 X119.929 Y93.444 F6000
G92 E0.0000
G1 X124.515 Y98.030 E0.2912 F3600
G1 X124.513 Y102.001 E0.4695
G1 X126.452 Y102.002 E0.5566
G1 X126.452 Y108.452 E0.8462
G1 X109.548 Y91.548 E1.9196
G1 X109.548 Y100.033 E2.3006
G1 X117.967 Y108.452 E2.8352
G92 E0.0000
G1 E-5 F2400
; layer 46, Z = 9.200
; feature inner perimeter
; tool H0.200 W0.480
G1 Z9.400 F1200
G1 X109.200 Y108.800 F6000
G1 Z9.200 F1200
G1 E0.0000 F2400
G92 E0.0000
G1 X109.200 Y91.200 E0.6322 F2700
G1 X114.849 Y91.200 E0.8351
G1 X114.850 Y93.096 E0.9032
G1 X120.089 Y93.096 E1.0914
G1 X120.090 Y91.200 E1.1595
G1 X126.800 Y91.200 E1.4006
G1 X126.800 Y97.571 E1.6294
G1 X124.863 Y97.570 E1.6990
G1 X124.862 Y101.651 E1.8456
G1 X126.800 Y101.652 E1.9152
G1 X126.800 Y108.800 E2.1720
G1 X109.200 Y108.800 E2.8042
G1 X108.720 Y109.280 F6000
G92 E0.0000
G1 X108.720 Y90.720 E0.6667 F2700
G1 X115.329 Y90.720 E0.9041
G1 X115.330 Y92.616 E0.9722
G1 X119.609 Y92.616 E1.1259
G1 X119.610 Y90.720 E1.1940
G1 X127.280 Y90.720 E1.4695
G1 X127.280 Y98.051 E1.7329
G1 X125.343 Y98.050 E1.8024
G1 X125.342 Y101.171 E1.9145
G1 X127.280 Y101.172 E1.9842
G1 X127.280 Y109.280 E2.2754
G1 X108.720 Y109.280 E2.9421
; feature outer perimeter
G1 X108.240 Y109.760 F6000
G92 E0.0000
G1 X108.240 Y90.240 E0.7012 F1800
G1 X115.809 Y90.240 E0.9730
G1 X115.810 Y92.136 E1.0412
G1 X119.129 Y92.136 E1.1604
G1 X119.130 Y90.240 E1.2285
G1 X127.760 Y90.240 E1.5385
G1 X127.760 Y98.531 E1.8363
G1 X125.823 Y98.531 E1.9059
G1 X125.822 Y100.691 E1.9835
G1 X127.760 Y100.692 E2.0531
G1 X127.760 Y109.760 E2.3789
G1 X108.240 Y109.760 E3.0800
; feature infill
; tool H0.200 W0.600
G1 X109.548 Y99.967 F6000
G92 E0.0000
G1 X116.071 Y93.444 E0.4142 F3600
G1 X120.437 Y93.444 E0.6102
G1 X120.438 Y91.548 E0.6954
G1 X126.452 Y91.548 E0.9654
G1 X109.548 Y108.452 E2.0388
G1 X118.033 Y108.452 E2.4198
G1 X124.513 Y101.972 E2.8313
G92 E0.0000
G1 E-5 F2400
; layer 47, Z = 9.400
; feature inner perimeter
; tool H0.200 W0.480
G1 Z9.600 F1200
G1 X124.862 Y101.687 F6000
G1 Z9.400 F1200
G1 E0.0000 F2400
G92 E0.0000
G1 X126.800 Y101.689 E0.0696 F2700
G1 X126.800 Y108.800 E0.3250
G1 X109.200 Y108.800 E0.9573
G1 X109.200 Y91.200 E1.5895
G1 X114.960 Y91.200 E1.7964
G1 X114.961 Y93.096 E1.8645
G1 X119.962 Y93.096 E2.0441
G1 X119.963 Y91.200 E2.1122
G1 X126.800 Y91.200 E2.3578
G1 X126.800 Y97.518 E2.5848
G1 X124.864 Y97.519 E2.6543
G1 X124.862 Y101.687 E2.8040
G1 X125.342 Y101.207 F6000
G92 E0.0000
G1 X127.280 Y101.210 E0.0696 F2700
G1 X127.280 Y109.280 E0.3595
G1 X108.720 Y109.280 E1.0262
G1 X108.720 Y90.720 E1.6929
G1 X115.440 Y90.720 E1.9343
G1 X115.441 Y92.616 E2.0024
G1 X119.483 Y92.616 E2.1476
G1 X119.484 Y90.720 E2.2157
G1 X127.280 Y90.720 E2.4957
G1 X127.280 Y97.998 E2.7572
G1 X125.343 Y97.999 E2.8267
G1 X125.342 Y101.207 E2.9420
; feature outer perimeter
G1 X125.822 Y100.728 F6000
G92 E0.0000
G1 X127.760 Y100.730 E0.0696 F1800
G1 X127.760 Y109.760 E0.3940
G1 X108.240 Y109.760 E1.0951
G1 X108.240 Y90.240 E1.7963
G1 X115.920 Y90.240 E2.0722
G1 X115.921 Y92.136 E2.1403
G1 X119.003 Y92.136 E2.2510
G1 X119.004 Y90.240 E2.3191
G1 X127.760 Y90.240 E2.6336
G1 X127.760 Y98.478 E2.9295
G1 X125.823 Y98.479 E2.9991
G1 X125.822 Y100.728 E3.0799
; feature infill
; tool H0.200 W0.600
G1 X119.929 Y93.444 F6000
G92 E0.0000
G1 X124.515 Y98.030 E0.2912 F3600
G1 X124.514 Y102.034 E0.4710
G1 X126.452 Y102.037 E0.5580
G1 X126.452 Y108.452 E0.8461
G1 X109.548 Y91.548 E1.9195
G1 X109.548 Y100.033 E2.3005
G1 X117.967 Y108.452 E2.8351
G92 E0.0000
G1 E-5 F2400
; layer 48, Z = 9.600
; feature inner perimeter
; tool H0.200 W0.480
G1 Z9.800 F1200
G1 X109.200 Y108.800 F6000
G1 Z9.600 F1200
G1 E0.0000 F2400
G92 E0.0000
G1 X109.200 Y91.200 E0.6322 F2700
G1 X115.071 Y91.200 E0.8431
G1 X115.072 Y93.096 E0.9112
G1 X119.836 Y93.096 E1.0823
G1 X119.837 Y91.200 E1.1505
G1 X126.800 Y91.200 E1.4006
G1 X126.800 Y97.398 E1.6232
G1 X124.864 Y97.399 E1.6928
G1 X124.862 Y101.800 E1.8508
G1 X126.800 Y101.802 E1.9204
G1 X126.800 Y108.800 E2.1718
G1 X109.200 Y108.800 E2.8040
G1 X108.720 Y109.280 F6000
G92 E0.0000
G1 X108.720 Y90.720 E0.6667 F2700
G1 X115.551 Y90.720 E0.9121
G1 X115.552 Y92.616 E0.9802
G1 X119.356 Y92.616 E1.1168
G1 X119.357 Y90.720 E1.1849
G1 X127.280 Y90.720 E1.4695
G1 X127.280 Y97.878 E1.7267
G1 X125.344 Y97.879 E1.7962
G1 X125.342 Y101.321 E1.9198
G1 X127.280 Y101.323 E1.9894
G1 X127.280 Y109.280 E2.2753
G1 X108.720 Y109.280 E2.9420
; feature outer perimeter
G1 X108.240 Y109.760 F6000
G92 E0.0000
G1 X108.240 Y90.240 E0.7012 F1800
G1 X116.031 Y90.240 E0.9810
G1 X116.032 Y92.136 E1.0491
G1 X118.876 Y92.136 E1.1513
G1 X118.877 Y90.240 E1.2194
G1 X127.760 Y90.240 E1.5385
G1 X127.760 Y98.358 E1.8301
G1 X125.824 Y98.359 E1.8997
G1 X125.823 Y100.841 E1.9888
G1 X127.760 Y100.844 E2.0584
G1 X127.760 Y109.760 E2.3787
G1 X108.240 Y109.760 E3.0799
; feature infill
; tool H0.200 W0.600
G1 X109.548 Y99.967 F6000
G92 E0.0000
G1 X116.071 Y93.444 E0.4142 F3600
G1 X120.184 Y93.444 E0.5989
G1 X120.185 Y91.548 E0.6840
G1 X126.452 Y91.548 E0.9654
G1 X109.548 Y108.452 E2.0388
G1 X118.033 Y108.452 E2.4198
G1 X124.514 Y101.971 E2.8313
G92 E0.0000
G1 E-5 F2400
; layer 49, Z = 9.800
; feature inner perimeter
; tool H0.200 W0.480
G1 Z10.000 F1200
G1 X124.862 Y101.913 F6000
G1 Z9.800 F1200
G1 E0.0000 F2400
G92 E0.0000
G1 X126.800 Y101.916 E0.0696 F2700
G1 X126.800 Y108.800 E0.3169
G1 X109.200 Y108.800 E0.9491
G1 X109.200 Y91.200 E1.5813
G1 X115.182 Y91.200 E1.7962
G1 X115.183 Y93.096 E1.8643
G1 X119.709 Y93.096 E2.0269
G1 X119.710 Y91.200 E2.0950
G1 X126.800 Y91.200 E2.3497
G1 X126.800 Y97.279 E2.5680
G1 X124.864 Y97.280 E2.6376
G1 X124.862 Y101.913 E2.8040
G1 X125.343 Y101.434 F6000
G92 E0.0000
G1 X127.280 Y101.436 E0.0696 F2700
G1 X127.280 Y109.280 E0.3513
G1 X108.720 Y109.280 E1.0180
G1 X108.720 Y90.720 E1.6847
G1 X115.662 Y90.720 E1.9341
G1 X115.663 Y92.616 E2.0022
G1 X119.230 Y92.616 E2.1303
G1 X119.231 Y90.720 E2.1985
G1 X127.280 Y90.720 E2.4876
G1 X127.280 Y97.759 E2.7404
G1 X125.344 Y97.760 E2.8100
G1 X125.343 Y101.434 E2.9419
; feature outer perimeter
G1 X125.823 Y100.954 F6000
G92 E0.0000
G1 X127.760 Y100.957 E0.0696 F1800
G1 X127.760 Y109.760 E0.3858
G1 X108.240 Y109.760 E1.0870
G1 X108.240 Y90.240 E1.7882
G1 X116.142 Y90.240 E2.0720
G1 X116.143 Y92.136 E2.1401
G1 X118.750 Y92.136 E2.2338
G1 X118.751 Y90.240 E2.3019
G1 X127.760 Y90.240 E2.6255
G1 X127.760 Y98.238 E2.9128
G1 X125.824 Y98.239 E2.9824
G1 X125.823 Y100.954 E3.0799
; feature infill
; tool H0.200 W0.600
G1 X119.930 Y93.444 F6000
G92 E0.0000
G1 X124.516 Y98.031 E0.2912 F3600
G1 X124.514 Y102.261 E0.4812
G1 X126.452 Y102.263 E0.5682
G1 X126.452 Y108.452 E0.8461
G1 X109.548 Y91.548 E1.9195
G1 X109.548 Y100.033 E2.3005
G1 X117.967 Y108.452 E2.8350
G92 E0.0000
G1 E-5 F2400
; layer 50, Z = 10.000
; feature inner perimeter
; tool H0.200 W0.480
G1 Z10.200 F1200
G1 X109.200 Y108.800 F6000
G1 Z10.000 F1200
G1 E0.0000 F2400
G92 E0.0000
G1 X109.200 Y91.200 E0.6322 F2700
G1 X115.293 Y91.200 E0.8511
G1 X115.294 Y93.097 E0.9192
G1 X119.583 Y93.097 E1.0733
G1 X119.584 Y91.200 E1.1414
G1 X126.800 Y91.200 E1.4006
G1 X126.800 Y97.159 E1.6147
G1 X124.865 Y97.160 E1.6842
G1 X124.863 Y102.026 E1.8590
G1 X126.800 Y102.029 E1.9286
G1 X126.800 Y108.800 E2.1718
G1 X109.200 Y108.800 E2.8040
G1 X108.720 Y109.280 F6000
G92 E0.0000
G1 X108.720 Y90.720 E0.6667 F2700
G1 X115.773 Y90.720 E0.9200
G1 X115.774 Y92.617 E0.9882
G1 X119.103 Y92.617 E1.1078
G1 X119.104 Y90.720 E1.1759
G1 X127.280 Y90.720 E1.4696
G1 X127.280 Y97.639 E1.7181
G1 X125.345 Y97.640 E1.7876
G1 X125.343 Y101.547 E1.9280
G1 X127.280 Y101.550 E1.9976
G1 X127.280 Y109.280 E2.2752
G1 X108.720 Y109.280 E2.9419
; feature outer perimeter
G1 X108.240 Y109.760 F6000
G92 E0.0000
G1 X108.240 Y90.240 E0.7012 F1800
G1 X116.253 Y90.240 E0.9890
G1 X116.254 Y92.137 E1.0571
G1 X118.623 Y92.137 E1.1423
G1 X118.624 Y90.240 E1.2104
G1 X127.760 Y90.240 E1.5385
G1 X127.760 Y98.119 E1.8215
G1 X125.824 Y98.120 E1.8911
G1 X125.823 Y101.068 E1.9970
G1 X127.760 Y101.070 E2.0666
G1 X127.760 Y109.760 E2.3787
G1 X108.240 Y109.760 E3.0799
; feature infill
; tool H0.200 W0.600
G1 X109.548 Y99.967 F6000
G92 E0.0000
G1 X116.070 Y93.445 E0.4142 F3600
G1 X119.931 Y93.445 E0.5875
G1 X119.932 Y91.548 E0.6727
G1 X126.452 Y91.548 E0.9654
G1 X109.548 Y108.452 E2.0388
G1 X118.033 Y108.452 E2.4198
G1 X124.515 Y101.971 E2.8314
G92 E0.0000
G1 E-5 F2400
; layer 51, Z = 10.200
; feature inner perimeter
; tool H0.200 W0.480
G1 Z10.400 F1200
G1 X124.863 Y102.140 F6000
G1 Z10.200 F1200
G1 E0.0000 F2400
G92 E0.0000
G1 X126.800 Y102.142 E0.0696 F2700
G1 X126.800 Y108.800 E0.3087
G1 X109.200 Y108.800 E0.9409
G1 X109.200 Y91.200 E1.5731
G1 X115.367 Y91.200 E1.7947
G1 X115.366 Y93.097 E1.8628
G1 X119.559 Y93.097 E2.0134
G1 X119.558 Y91.200 E2.0815
G1 X126.800 Y91.200 E2.3417
G1 X126.800 Y97.040 E2.5515
G1 X124.865 Y97.041 E2.6210
G1 X124.863 Y102.140 E2.8041
G1 X125.343 Y101.660 F6000
G92 E0.0000
G1 X127.280 Y101.663 E0.0696 F2700
G1 X127.280 Y109.280 E0.3432
G1 X108.720 Y109.280 E1.0099
G1 X108.720 Y90.720 E1.6766
G1 X115.847 Y90.720 E1.9326
G1 X115.846 Y92.617 E2.0007
G1 X119.079 Y92.617 E2.1168
G1 X119.078 Y90.720 E2.1850
G1 X127.280 Y90.720 E2.4796
G1 X127.280 Y97.519 E2.7238
G1 X125.345 Y97.520 E2.7933
G1 X125.343 Y101.660 E2.9421
; feature outer perimeter
G1 X125.823 Y101.181 F6000
G92 E0.0000
G1 X127.760 Y101.184 E0.0696 F1800
G1 X127.760 Y109.760 E0.3776
G1 X108.240 Y109.760 E1.0788
G1 X108.240 Y90.240 E1.7800
G1 X116.327 Y90.240 E2.0705
G1 X116.326 Y92.137 E2.1386
G1 X118.599 Y92.137 E2.2202
G1 X118.598 Y90.240 E2.2884
G1 X127.760 Y90.240 E2.6175
G1 X127.760 Y97.999 E2.8962
G1 X125.825 Y98.000 E2.9657
G1 X125.823 Y101.181 E3.0800
; feature solid layer
G1 X119.847 Y92.343 F6000
G92 E0.0000
G1 X119.878 Y92.374 E0.0016 F2880
G1 X119.878 Y91.695 E0.0260
G1 X119.846 Y91.664 E0.0276
; feature infill
; tool H0.200 W0.600
G1 X119.931 Y93.445 F6000
G92 E0.0000
G1 X124.517 Y98.031 E0.2912 F3600
G1 X124.515 Y102.487 E0.4913
G1 X126.452 Y102.490 E0.5783
G1 X126.452 Y108.452 E0.8460
G1 X109.548 Y91.548 E1.9194
G1 X109.548 Y100.033 E2.3004
G1 X117.967 Y108.452 E2.8350
G92 E0.0000
G1 E-5 F2400
; layer 52, Z = 10.400
; feature inner perimeter
; tool H0.200 W0.480
G1 Z10.600 F1200
G1 X109.200 Y108.800 F6000
G1 Z10.400 F1200
G1 E0.0000 F2400
G92 E0.0000
G1 X109.200 Y91.200 E0.6322 F2700
G1 X115.254 Y91.200 E0.8497
G1 X115.253 Y93.097 E0.9178
G1 X119.687 Y93.097 E1.0771
G1 X119.686 Y91.200 E1.1452
G1 X126.800 Y91.200 E1.4008
G1 X126.800 Y96.920 E1.6062
G1 X124.866 Y96.921 E1.6757
G1 X124.863 Y102.253 E1.8673
G1 X126.800 Y102.256 E1.9368
G1 X126.800 Y108.800 E2.1719
G1 X109.200 Y108.800 E2.8041
G1 X108.720 Y109.280 F6000
G92 E0.0000
G1 X108.720 Y90.720 E0.6667 F2700
G1 X115.735 Y90.720 E0.9187
G1 X115.734 Y92.617 E0.9868
G1 X119.207 Y92.617 E1.1116
G1 X119.206 Y90.720 E1.1797
G1 X127.280 Y90.720 E1.4697
G1 X127.280 Y97.400 E1.7097
G1 X125.345 Y97.401 E1.7792
G1 X125.343 Y101.774 E1.9363
G1 X127.280 Y101.776 E2.0058
G1 X127.280 Y109.280 E2.2754
G1 X108.720 Y109.280 E2.9420
; feature outer perimeter
G1 X108.240 Y109.760 F6000
G92 E0.0000
G1 X108.240 Y90.240 E0.7012 F1800
G1 X116.215 Y90.240 E0.9876
G1 X116.214 Y92.137 E1.0558
G1 X118.726 Y92.137 E1.1460
G1 X118.725 Y90.240 E1.2142
G1 X127.760 Y90.240 E1.5387
G1 X127.760 Y97.880 E1.8131
G1 X125.825 Y97.880 E1.8826
G1 X125.824 Y101.294 E2.0053
G1 X127.760 Y101.297 E2.0748
G1 X127.760 Y109.760 E2.3788
G1 X108.240 Y109.760 E3.0800
; feature solid layer
G1 X119.975 Y92.595 F6000
G92 E0.0000
G1 X120.006 Y92.564 E0.0016 F2880
G1 X120.006 Y91.885 E0.0260
G1 X119.974 Y91.916 E0.0276
; feature infill
; tool H0.200 W0.600
G1 X124.515 Y101.970 F6000
G92 E0.0000
G1 X118.033 Y108.452 E0.4116 F3600
G1 X109.548 Y108.452 E0.7926
G1 X126.452 Y91.548 E1.8660
G1 X120.545 Y91.548 E2.1312
G1 X120.546 Y93.446 E2.2164
G1 X119.435 Y93.446 E2.2663
G1 X116.070 Y93.445 E2.4174
G1 X109.548 Y99.967 E2.8316
G92 E0.0000
G1 E-5 F2400
; layer 53, Z = 10.600
; feature inner perimeter
; tool H0.200 W0.480
G1 Z10.800 F1200
G1 X109.200 Y91.200 F6000
G1 Z10.600 F1200
G1 E0.0000 F2400
G92 E0.0000
G1 X115.142 Y91.200 E0.2134 F2700
G1 X115.141 Y93.097 E0.2816
G1 X119.815 Y93.097 E0.4495
G1 X119.814 Y91.200 E0.5176
G1 X126.800 Y91.200 E0.7686
G1 X126.800 Y96.800 E0.9697
G1 X124.866 Y96.801 E1.0392
G1 X124.863 Y102.366 E1.2391
G1 X126.800 Y102.369 E1.3087
G1 X126.800 Y108.800 E1.5397
G1 X109.200 Y108.800 E2.1719
G1 X109.200 Y91.200 E2.8041
G1 X108.720 Y90.720 F6000
G92 E0.0000
G1 X115.622 Y90.720 E0.2479 F2700
G1 X115.621 Y92.617 E0.3161
G1 X119.334 Y92.617 E0.4495
G1 X119.333 Y90.720 E0.5176
G1 X127.280 Y90.720 E0.8030
G1 X127.280 Y97.280 E1.0387
G1 X125.346 Y97.281 E1.1082
G1 X125.344 Y101.887 E1.2736
G1 X127.280 Y101.890 E1.3432
G1 X127.280 Y109.280 E1.6087
G1 X108.720 Y109.280 E2.2753
G1 X108.720 Y90.720 E2.9420
; feature outer perimeter
G1 X108.240 Y90.240 F6000
G92 E0.0000
G1 X116.102 Y90.240 E0.2824 F1800
G1 X116.101 Y92.137 E0.3506
G1 X118.854 Y92.137 E0.4494
G1 X118.853 Y90.240 E0.5176
G1 X127.760 Y90.240 E0.8375
G1 X127.760 Y97.760 E1.1077
G1 X125.825 Y97.761 E1.1771
G1 X125.824 Y101.408 E1.3081
G1 X127.760 Y101.410 E1.3777
G1 X127.760 Y109.760 E1.6776
G1 X108.240 Y109.760 E2.3788
G1 X108.240 Y90.240 E3.0800
; feature solid layer
G1 X116.102 Y91.353 F6000
G1 X116.101 Y92.137
G1 X118.854 Y92.137
G1 X118.854 Y91.743
G1 X120.102 Y91.920
G92 E0.0000
G1 X120.133 Y91.951 E0.0016 F2880
G1 X120.134 Y92.630 E0.0260
G1 X120.102 Y92.599 E0.0276
; feature infill
; tool H0.200 W0.600
G1 X119.931 Y93.446 F6000
G92 E0.0000
G1 X124.517 Y98.032 E0.2912 F3600
G1 X124.515 Y102.714 E0.5015
G1 X126.452 Y102.717 E0.5884
G1 X126.452 Y108.452 E0.8459
G1 X109.548 Y91.548 E1.9194
G1 X109.548 Y100.033 E2.3003
G1 X117.967 Y108.452 E2.8349
G92 E0.0000
G1 E-5 F2400
; layer 54, Z = 10.800
; feature inner perimeter
; tool H0.200 W0.480
G1 Z11.000 F1200
G1 X109.200 Y108.800 F6000
G1 Z10.800 F1200
G1 E0.0000 F2400
G92 E0.0000
G1 X109.200 Y91.200 E0.6322 F2700
G1 X115.029 Y91.200 E0.8416
G1 X115.028 Y93.097 E0.9098
G1 X119.943 Y93.097 E1.0863
G1 X119.942 Y91.200 E1.1544
G1 X126.800 Y91.200 E1.4008
G1 X126.800 Y96.681 E1.5977
G1 X124.866 Y96.682 E1.6671
G1 X124.865 Y98.417 E1.7294
G1 X124.864 Y102.480 E1.8754
G1 X126.800 Y102.482 E1.9449
G1 X126.800 Y108.800 E2.1719
G1 X109.200 Y108.800 E2.8041
G1 X108.720 Y109.280 F6000
G92 E0.0000
G1 X108.720 Y90.720 E0.6667 F2700
G1 X115.510 Y90.720 E0.9106
G1 X115.509 Y92.617 E0.9787
